!!!!SEGMENT: pl-wtm--r-1556--006_stefani-jozef--msza-no-15-agnus-dei.krn
!!!cenid: 18xx:1834
!!!COM: Stefani, Józef
!!!COM-rismID: pe30024097
!!!CDT: 1800/04/16-1876/03/19
!!!CNT: Polish
!!!OPR: Msza No 15
!!!OTL: Agnus Dei
!!!OMV: 006
!!!PDT: 1858
!!!AGN: Sacred; Mass
!!!SMS-siglum: PL-Wtm
!!!SMS-shelfmark: R 1556
!!!SMS-shelfwork: 001-006 M
!!!SMS-variant:
!!!SMS-altvar:
!!!NIFC-rismSourceID: 1001115188
!!!NIFC-islandoraID: pl-wtm:26851
!!!URL-pdf-islandora: https://repozytorium.nifc.pl/islandora/object/pl-wtm%3A26851/datastream/PDF/view
!!!URL-scan: https://polish.musicsources.pl/pl/lokalizacje/galeria/rekopisy/6357 @EN{Scan on Polish Music Herritage in Open Access Website} @PL{Skany w portalu Dziedzictwo Muzyki Polskiej w otwartym dostępie}
!!!ONB-nifc: UWAGA: części Mszy: 1. Kyrie, 2. Gloria, 3. Credo, 4. Sanctus, 5. Benedictus, 6. Agnus Dei, 7. Dona nobis
!!!AIN: 1 alto 1 bass 1 cbass 1 cello 1 clars 1 cor 1 fagot 1 flt 1 oboe 1 soprn 1 tenor 1 timpa 1 tromp 1 tromt 1 viola 1 violn
!!!key:
**kern	**dynam	**kern	**kern	**text	**dynam	**kern	**dynam	**kern	**kern	**text	**dynam	**kern	**dynam	**kern	**dynam	**kern	**dynam	**kern	**kern	**dynam	**kern	**kern	**dynam	**kern	**dynam	**kern	**dynam	**kern	**dynam	**kern	**kern	**dynam
*part16	*part16	*part15	*part14	*part14	*part14	*part13	*part13	*part12	*part11	*part11	*part11	*part10	*part10	*part9	*part9	*part9	*part9	*part8	*part7	*part7	*part6	*part5	*part5	*part4	*part4	*part3	*part3	*part2	*part2	*part1	*part1	*part1
*staff18	*	*staff17	*staff16	*staff16	*	*staff15	*	*staff14	*staff13	*staff13	*	*staff12	*	*staff11	*	*staff10	*	*staff9	*staff8	*	*staff7	*staff6	*	*staff5	*	*staff4	*	*staff3	*	*staff2	*staff1	*
*Icbass	*	*Icello	*Ibass	*	*	*Itenor	*	*Ialto	*Isoprn	*	*	*Iviola	*	*Ivioln	*	*Iempty	*	*Itimpa	*Itromt	*	*Itromp	*Ifagot	*	*Icor	*	*Iclars	*	*Ioboe	*	*Iflt	*Iempty	*
*I"Contrabbassi	*	*I"Violoncello	*I"Basso	*	*	*I"Tenore	*	*I"Alto	*I"Soprano	*	*	*I"Viole	*	*I"Violini	*	*	*	*I"Tympano in C.G.	*I"Tromboni	*	*I"Trombe in B	*I"Fagotti	*	*I"Corno in Es	*	*I"Clarinetti in B♭	*	*I"Oboe	*	*I"Flautti	*	*
*I'C-b.	*	*I'V-c.	*I'B.	*	*	*I'T.	*	*I'A.	*I'S.	*	*	*I'V-le	*	*I'V-ni	*	*	*	*I'Timp.	*I'Tr-ni	*	*I'Tr-be	*I'Fag.	*	*I'C.	*	*I'Cl.	*	*I'Ob.	*	*I'Fl.	*	*
*clefF4	*	*clefF4	*clefF4	*	*	*clefC4	*	*clefC3	*clefC1	*	*	*clefC3	*	*clefG2	*	*clefG2	*	*clefF4	*clefF4	*	*clefG2	*clefF4	*	*clefG2	*	*clefG2	*	*clefG2	*	*clefG2	*clefG2	*
*ITrd0c0	*	*	*	*	*	*	*	*	*	*	*	*	*	*	*	*	*	*	*	*	*ITrd1c2	*	*	*ITrd5c9	*	*ITrd1c2	*	*	*	*	*	*
*k[f#]	*	*k[f#]	*k[f#]	*	*	*k[f#]	*	*k[f#]	*k[f#]	*	*	*k[f#]	*	*k[f#]	*	*k[f#]	*	*k[]	*k[f#]	*	*k[b-e-]	*k[f#]	*	*k[b-e-a-]	*	*k[f#]	*	*k[f#]	*	*k[f#]	*k[f#]	*
*G:	*	*G:	*G:	*	*	*G:	*	*G:	*G:	*	*	*G:	*	*G:	*	*G:	*	*G:	*G:	*	*G:	*G:	*	*G:	*	*G:	*	*G:	*	*G:	*G:	*
*M3/4	*	*M3/4	*M3/4	*	*	*M3/4	*	*M3/4	*M3/4	*	*	*M3/4	*	*M3/4	*	*M3/4	*	*M3/4	*M3/4	*	*M3/4	*M3/4	*	*M3/4	*	*M3/4	*	*M3/4	*	*M3/4	*M3/4	*
*	*	*	*	*	*	*	*	*	*	*	*	*	*	*	*	*	*above	*	*	*	*	*	*	*	*	*	*	*	*	*	*	*
!	!LO:DY:a	!	!	!	!	!	!	!	!	!	!	!	!	!	!	!	!LO:DY:a	!	!	!	!LO:TX:t=P:problem=brak znaków przy kluczu	!	!LO:DY:a	!LO:TX:t=P:problem=brak znaków przy kluczu	!	!	!	!	!	!	!LO:TX:i:a:t=Adagio.	!
(4E-X\	sf	4ryy	4r	.	.	4r	.	4r	4r	.	.	4E-X/	.	(4c#X/	.	(>4g/ 4G/	sfp	4r	(>(>4c#X\ (>4G\ 4E-X\	sfp > ]]	4r	(4E-X/ (4EE-X/	sfp	4r	.	4g/ 4c#X/	.	(4gg\ (4cc#X\	sfp	4ryy	4ryy	.
=1	=1	=1	=1	=1	=1	=1	=1	=1	=1	=1	=1	=1	=1	=1	=1	=1	=1	=1	=1	=1	=1	=1	=1	=1	=1	=1	=1	=1	=1	=1	=1	=1
*	*	*	*	*	*	*	*	*	*	*	*	*	*	*	*	*	*	*	*	*	*	*	*	*	*	*	*	*^	*	*	*	*
!	!LO:DY:a	!	!	!	!	!	!	!	!	!	!	!	!	!	!	!	!	!	!	!	!	!	!	!	!	!	!	!	!	!	!	!	!
8D\L)	p	2.ryy	2.r	.	.	2.r	.	2.r	2.r	.	.	8D'/L	.	2d/)	.	2f#/ 2A/	.	2.r	4d\ 4F#\) 4D\))	.	2.r	4D/ 4DD/))	.	2.r	.	4f#X/ 4d/	.	4ff#/))	4dd\	.	2.ryy	2.ryy	.
(8D\|	.	.	.	.	.	.	.	.	.	.	.	(8D/	.	.	.	.	.	.	.	.	.	.	.	.	.	.	.	.	.	.	.	.	.
8C#X\	.	.	.	.	.	.	.	.	.	.	.	8C#X/	.	.	.	.	.	.	4r	.	.	4r	.	.	.	4r	.	4r	2ryy	.	.	.	.
8D\J)	.	.	.	.	.	.	.	.	.	.	.	8D/J)	.	.	.	.	.	.	.	.	.	.	.	.	.	.	.	.	.	.	.	.	.
!	!	!	!	!	!	!	!	!	!	!	!	!	!	!	!	!	!LO:DY:a	!	!	!	!	!	!	!	!	!	!	!	!	!	!	!	!
4E-X\	sf	.	.	.	.	.	.	.	.	.	.	4E-X/	.	(4c#X/	.	(>4g/ 4G/)	sfp	.	(>(>4c#X\ (>4G\ 4E-X\	sfp > ]]	.	((4E-X/ 4EE-X/	.	.	.	4g/ 4c/	.	(>(>4gg\ 4cc#X\	.	sfp	.	.	.
=2	=2	=2	=2	=2	=2	=2	=2	=2	=2	=2	=2	=2	=2	=2	=2	=2	=2	=2	=2	=2	=2	=2	=2	=2	=2	=2	=2	=2	=2	=2	=2	=2	=2
*	*	*	*	*	*	*	*	*	*	*	*	*	*	*	*	*	*	*	*	*	*	*^	*	*	*	*^	*	*	*	*	*	*	*
8D'\L	p	2.ryy	2.r	.	.	2.r	.	2.r	2.r	.	.	8D'/L	.	2d/)	.	2f#/ 2A/)	.	2.r	4d\ 4F#\) 4D\))	.	2.r	4D/) 4DD/)	4ryy	.	2.r	.	4f#/ 4d/	4ryy	.	4ff#/)	4dd\)	.	2.ryy	2.ryy	.
(8A\	.	.	.	.	.	.	.	.	.	.	.	(8A/	.	.	.	.	.	.	.	.	.	.	.	.	.	.	.	.	.	.	.	.	.	.	.
8F#\	.	.	.	.	.	.	.	.	.	.	.	8F#/	.	.	.	.	.	.	4r	.	.	4r	4r	.	.	.	4r	4ryy	.	4r	4ryy	.	.	.	.
8D\J)	.	.	.	.	.	.	.	.	.	.	.	8D/J)	.	.	.	.	.	.	.	.	.	.	.	.	.	.	.	.	.	.	.	.	.	.	.
!	!	!	!	!	!	!	!	!	!	!	!	!	!	!	!	!	!LO:DY:a	!	!	!	!	!	!	!	!	!	!	!	!	!	!	!	!	!	!
(8Cn/L	.	.	.	.	.	.	.	.	.	.	.	(8Cn/L	.	4f#/	.	4a/	<	.	4r	.	.	4d/	4Cn\	<	.	.	4a/	4f#\	.	4r	4ryy	.	.	.	.
8D/J)	.	.	.	.	.	.	.	.	.	.	.	8D/J)	.	.	.	.	.	.	.	.	.	.	.	.	.	.	.	.	.	.	.	.	.	.	.
*	*	*	*	*	*	*	*	*	*	*	*	*	*	*	*	*	*	*	*	*	*	*	*	*	*	*	*	*	*	*v	*v	*	*	*	*
=3	=3	=3	=3	=3	=3	=3	=3	=3	=3	=3	=3	=3	=3	=3	=3	=3	=3	=3	=3	=3	=3	=3	=3	=3	=3	=3	=3	=3	=3	=3	=3	=3	=3	=3
*	*	*	*	*	*	*	*	*	*	*	*	*	*	*	*	*2\right	*	*	*	*	*	*	*2\right	*	*	*	*	*2\right	*	*	*	*	*	*
!	!	!	!	!	!	!	!	!	!	!	!	!	!	!	!	!	!LO:DY:a	!	!	!	!	!	!	!	!	!	!	!	!	!	!	!	!	!
(8BB\L	.	2.ryy	2.r	.	.	2.r	.	2.r	2.r	.	.	8B/L|	.	(>2g/	.	2dd\	[ >	2.r	2.r	.	2.r	(2d/	2BB\	[ >	2.r	.	(2dd/	2g\	.	2.r	.	2.ryy	2.ryy	.
8D\	.	.	.	.	.	.	.	.	.	.	.	(8D/	.	.	.	.	.	.	.	.	.	.	.	.	.	.	.	.	.	.	.	.	.	.
8G\	.	.	.	.	.	.	.	.	.	.	.	8G/	.	.	.	.	.	.	.	.	.	.	.	.	.	.	.	.	.	.	.	.	.	.
8B\J)	.	.	.	.	.	.	.	.	.	.	.	8B/J)	.	.	.	.	.	.	.	.	.	.	.	.	.	.	.	.	.	.	.	.	.	.
(8AA/L	.	.	.	.	.	.	.	.	.	.	.	(8A/L	.	8e/L	.	(8cc\L	]	.	.	.	.	8c/L	8AA\L	] ]	.	.	8cc/L	8e\L	.	.	.	.	.	.
8C/J)	.	.	.	.	.	.	.	.	.	.	.	8c/J)	.	8e-X/J)	.	8a\J)	.	.	.	.	.	8A/J	8C\J	.	.	.	8a/J)	8e-\J	.	.	.	.	.	.
*	*	*	*	*	*	*	*	*	*	*	*	*	*	*	*	*	*	*	*	*	*	*v	*v	*	*	*	*	*	*	*	*	*	*	*
=4	=4	=4	=4	=4	=4	=4	=4	=4	=4	=4	=4	=4	=4	=4	=4	=4	=4	=4	=4	=4	=4	=4	=4	=4	=4	=4	=4	=4	=4	=4	=4	=4	=4
8D\	.	2.ryy	2.r	.	.	2.r	.	2.r	2.r	.	.	8B/	.	8d/	.	8g/	.	2.r	2.r	.	2.r	8B\ 8D\)	.	2.r	.	8g/	8d\	.	2.r	.	2.ryy	(16d/LL	.
.	.	.	.	.	.	.	.	.	.	.	.	.	.	.	.	.	.	.	.	.	.	.	.	.	.	.	.	.	.	.	.	32e/L	.
.	.	.	.	.	.	.	.	.	.	.	.	.	.	.	.	.	.	.	.	.	.	.	.	.	.	.	.	.	.	.	.	32f#/	.
8r	.	.	.	.	.	.	.	.	.	.	.	8r	.	8r	.	8r	.	.	.	.	.	8r	.	.	.	8r	8ryy	.	.	.	.	32g/	.
.	.	.	.	.	.	.	.	.	.	.	.	.	.	.	.	.	.	.	.	.	.	.	.	.	.	.	.	.	.	.	.	32a/	.
.	.	.	.	.	.	.	.	.	.	.	.	.	.	.	.	.	.	.	.	.	.	.	.	.	.	.	.	.	.	.	.	32b/	.
.	.	.	.	.	.	.	.	.	.	.	.	.	.	.	.	.	.	.	.	.	.	.	.	.	.	.	.	.	.	.	.	32cc/JJJ)	.
4r	.	.	.	.	.	.	.	.	.	.	.	4r	.	4r	.	4r	.	.	.	.	.	4r	.	.	.	4r	2ryy	.	.	.	.	(16dd\LL	.
.	.	.	.	.	.	.	.	.	.	.	.	.	.	.	.	.	.	.	.	.	.	.	.	.	.	.	.	.	.	.	.	32ee\L	.
.	.	.	.	.	.	.	.	.	.	.	.	.	.	.	.	.	.	.	.	.	.	.	.	.	.	.	.	.	.	.	.	32ff#\	.
.	.	.	.	.	.	.	.	.	.	.	.	.	.	.	.	.	.	.	.	.	.	.	.	.	.	.	.	.	.	.	.	32gg\	.
.	.	.	.	.	.	.	.	.	.	.	.	.	.	.	.	.	.	.	.	.	.	.	.	.	.	.	.	.	.	.	.	32aa\	.
.	.	.	.	.	.	.	.	.	.	.	.	.	.	.	.	.	.	.	.	.	.	.	.	.	.	.	.	.	.	.	.	32bb\	.
.	.	.	.	.	.	.	.	.	.	.	.	.	.	.	.	.	.	.	.	.	.	.	.	.	.	.	.	.	.	.	.	32ccc\JJJ)	.
4r	.	.	.	.	.	.	.	.	.	.	.	4r	.	4r	.	4r	.	.	.	.	.	4r	.	.	.	4r	.	.	.	.	.	16ddd\LL	.
.	.	.	.	.	.	.	.	.	.	.	.	.	.	.	.	.	.	.	.	.	.	.	.	.	.	.	.	.	.	.	.	16ddd#X'\	.
.	.	.	.	.	.	.	.	.	.	.	.	.	.	.	.	.	.	.	.	.	.	.	.	.	.	.	.	.	.	.	.	16eee'\	.
.	.	.	.	.	.	.	.	.	.	.	.	.	.	.	.	.	.	.	.	.	.	.	.	.	.	.	.	.	.	.	.	16fff#'\JJ	.
*	*	*	*	*	*	*	*	*	*	*	*	*	*	*	*	*	*	*	*	*	*	*	*	*	*	*v	*v	*	*	*	*	*	*
!!LO:PB:g=original
=5	=5	=5	=5	=5	=5	=5	=5	=5	=5	=5	=5	=5	=5	=5	=5	=5	=5	=5	=5	=5	=5	=5	=5	=5	=5	=5	=5	=5	=5	=5	=5	=5
!	!	!	!	!	!	!	!	!	!	!	!	!	!	!	!	!	!LO:DY:rj:b	!	!	!	!	!	!	!	!	!	!	!	!	!	!	!
4E\	p	2.ryy	2.r	.	.	2.r	.	2.r	2.r	.	.	2.E/	.	4B/	.	4g/ 4B/	p	2.ryy	2.ryy	.	2.ryy	2.ryy	.	2.ryy	.	2.ryy	.	2.ryy	.	2.ryy	16.ggg\LL	.
.	.	.	.	.	.	.	.	.	.	.	.	.	.	.	.	.	.	.	.	.	.	.	.	.	.	.	.	.	.	.	32fff#\K	.
.	.	.	.	.	.	.	.	.	.	.	.	.	.	.	.	.	.	.	.	.	.	.	.	.	.	.	.	.	.	.	16eee\	.
.	.	.	.	.	.	.	.	.	.	.	.	.	.	.	.	.	.	.	.	.	.	.	.	.	.	.	.	.	.	.	16ddd\JJ	.
2AA/	.	.	.	.	.	.	.	.	.	.	.	.	.	2c#X/	.	2f#/ 2A/	.	.	.	.	.	.	.	.	.	.	.	.	.	.	16ccc#X\LL	.
.	.	.	.	.	.	.	.	.	.	.	.	.	.	.	.	.	.	.	.	.	.	.	.	.	.	.	.	.	.	.	16bb\	.
.	.	.	.	.	.	.	.	.	.	.	.	.	.	.	.	.	.	.	.	.	.	.	.	.	.	.	.	.	.	.	16aa\	.
.	.	.	.	.	.	.	.	.	.	.	.	.	.	.	.	.	.	.	.	.	.	.	.	.	.	.	.	.	.	.	16gg\JJ	.
.	.	.	.	.	.	.	.	.	.	.	.	.	.	.	.	.	.	.	.	.	.	.	.	.	.	.	.	.	.	.	16ff#\LL	.
.	.	.	.	.	.	.	.	.	.	.	.	.	.	.	.	.	.	.	.	.	.	.	.	.	.	.	.	.	.	.	16ee\	.
.	.	.	.	.	.	.	.	.	.	.	.	.	.	.	.	.	.	.	.	.	.	.	.	.	.	.	.	.	.	.	16dd\	.
.	.	.	.	.	.	.	.	.	.	.	.	.	.	.	.	.	.	.	.	.	.	.	.	.	.	.	.	.	.	.	16cc#X\JJ	.
=6	=6	=6	=6	=6	=6	=6	=6	=6	=6	=6	=6	=6	=6	=6	=6	=6	=6	=6	=6	=6	=6	=6	=6	=6	=6	=6	=6	=6	=6	=6	=6	=6
*2\right	*	*	*	*	*	*	*	*	*	*	*	*	*	*	*	*	*below	*	*	*	*	*	*	*	*	*	*	*	*	*	*	*
.	.	.	.	.	.	.	.	.	.	.	.	.	.	.	.	.	.	.	.	.	.	.	.	.	.	.	.	.	.	.	8qcc#X/	.
[2.D\	<[	2.ryy	2.r	.	.	2.r	.	2.r	2.r	.	.	[2.D/	<[	[2.d/	.	[2.f#/ [2.A/	< [	2.ryy	2.ryy	.	2.ryy	2.ryy	.	2.ryy	.	2.ryy	.	2.ryy	.	2.ryy	4ddT\	.
.	.	.	.	.	.	.	.	.	.	.	.	.	.	.	<	.	.	.	.	.	.	.	.	.	.	.	.	.	.	.	4ff#t\	.
.	.	.	.	.	.	.	.	.	.	.	.	.	.	.	.	.	.	.	.	.	.	.	.	.	.	.	.	.	.	.	4aaT\	.
.	.	.	.	.	.	.	.	.	.	.	.	.	.	.	.	.	.	.	.	.	.	.	.	.	.	.	.	.	.	.	(16qqgg#X/LL	.
.	.	.	.	.	.	.	.	.	.	.	.	.	.	.	[	.	.	.	.	.	.	.	.	.	.	.	.	.	.	.	16qqaa/JJ)	.
=7	=7	=7	=7	=7	=7	=7	=7	=7	=7	=7	=7	=7	=7	=7	=7	=7	=7	=7	=7	=7	=7	=7	=7	=7	=7	=7	=7	=7	=7	=7	=7	=7
!	!LO:DY:rj	!	!	!	!	!	!	!	!	!	!	!	!LO:DY:rj	!	!LO:DY:rj	!	!	!	!	!	!	!	!LO:DY:rj	!	!	!	!	!	!LO:DY:rj	!	!	!
4d\ 4D\]	f	2.ryy	2.r	.	.	2.r	.	2.r	2.r	.	.	4A/ 4D/]	f	4ff#/ 4a/ 4d/]	f	4dd/ 4f#/] 4A/]	[ f	2.r;	4d\ 4F#\ 4D\	.	2.r;	4c\ 4D\	f	2.r;	.	4ee\ 4a\	.	4ff#\ 4a\	f	2.ryy	4ccc\	.
4r	.	.	.	.	.	.	.	.	.	.	.	4r	.	4r	.	4r	.	.	4r	.	.	4r	.	.	.	4r	.	4r	.	.	(32bb\LLL	.
.	.	.	.	.	.	.	.	.	.	.	.	.	.	.	.	.	.	.	.	.	.	.	.	.	.	.	.	.	.	.	32ccc\	.
.	.	.	.	.	.	.	.	.	.	.	.	.	.	.	.	.	.	.	.	.	.	.	.	.	.	.	.	.	.	.	32ddd\	.
.	.	.	.	.	.	.	.	.	.	.	.	.	.	.	.	.	.	.	.	.	.	.	.	.	.	.	.	.	.	.	32eee\JJJ)	.
.	.	.	.	.	.	.	.	.	.	.	.	.	.	.	.	.	.	.	.	.	.	.	.	.	.	.	.	.	.	.	(32gg#X\LLL	.
.	.	.	.	.	.	.	.	.	.	.	.	.	.	.	.	.	.	.	.	.	.	.	.	.	.	.	.	.	.	.	32aa\	.
.	.	.	.	.	.	.	.	.	.	.	.	.	.	.	.	.	.	.	.	.	.	.	.	.	.	.	.	.	.	.	32bb\	.
.	.	.	.	.	.	.	.	.	.	.	.	.	.	.	.	.	.	.	.	.	.	.	.	.	.	.	.	.	.	.	32ccc\JJJ)	.
4r;	.	.	.	.	.	.	.	.	.	.	.	4r;	.	4r;	.	4r;	.	.	4r;	.	.	4r;	.	.	.	4r;	.	4r;	.	.	(32ff#\LLL	.
.	.	.	.	.	.	.	.	.	.	.	.	.	.	.	.	.	.	.	.	.	.	.	.	.	.	.	.	.	.	.	32ggn\	.
.	.	.	.	.	.	.	.	.	.	.	.	.	.	.	.	.	.	.	.	.	.	.	.	.	.	.	.	.	.	.	32gg#X\	.
.	.	.	.	.	.	.	.	.	.	.	.	.	.	.	.	.	.	.	.	.	.	.	.	.	.	.	.	.	.	.	32aa\JJJ)	.
!	!	!	!	!	!	!	!	!	!	!	!	!	!	!	!	!	!	!	!	!	!	!	!	!	!	!	!	!	!	!	!LO:TX:a:t=rall.	!
.	.	.	.	.	.	.	.	.	.	.	.	.	.	.	.	.	.	.	.	.	.	.	.	.	.	.	.	.	.	.	32dd\LLL	.
.	.	.	.	.	.	.	.	.	.	.	.	.	.	.	.	.	.	.	.	.	.	.	.	.	.	.	.	.	.	.	32dd#X'\	.
.	.	.	.	.	.	.	.	.	.	.	.	.	.	.	.	.	.	.	.	.	.	.	.	.	.	.	.	.	.	.	32ee'\	.
.	.	.	.	.	.	.	.	.	.	.	.	.	.	.	.	.	.	.	.	.	.	.	.	.	.	.	.	.	.	.	32ff#';\JJJ	.
=8	=8	=8	=8	=8	=8	=8	=8	=8	=8	=8	=8	=8	=8	=8	=8	=8	=8	=8	=8	=8	=8	=8	=8	=8	=8	=8	=8	=8	=8	=8	=8	=8
!	!	!	!LO:TX:rj:i:a:t=Solo	!	!	!	!	!	!	!	!	!	!	!	!	!	!	!	!	!	!	!	!	!	!	!	!	!	!	!	!	!
(4GG/	sfp	2.ryy	(8.G\L	A-	.	2.r	.	2.r	2.r	.	.	8r	.	8r	.	8r	.	2.r	2.ryy	.	2.ryy	2.ryy	.	2.ryy	.	2.ryy	.	2.ryy	.	2.ryy	2.ryy	.
!	!	!	!	!	!	!	!	!	!	!	!	!	!	!	!	!	!LO:DY:a	!	!	!	!	!	!	!	!	!	!	!	!	!	!	!
.	.	.	.	.	.	.	.	.	.	.	.	8d\ 8G\	sfp	8B/	sfp	8g/	sfp	.	.	.	.	.	.	.	.	.	.	.	.	.	.	.
.	.	.	32A\LL	.	.	.	.	.	.	.	.	.	.	.	.	.	.	.	.	.	.	.	.	.	.	.	.	.	.	.	.	.
.	.	.	32G\JJJ	.	.	.	.	.	.	.	.	.	.	.	.	.	.	.	.	.	.	.	.	.	.	.	.	.	.	.	.	.
4AA/	.	.	4F#\)	.	.	.	.	.	.	.	.	8r	.	8r	.	8r	.	.	.	.	.	.	.	.	.	.	.	.	.	.	.	.
.	.	.	.	.	.	.	.	.	.	.	.	8d\ 8A\	.	8c/	.	8f#/	.	.	.	.	.	.	.	.	.	.	.	.	.	.	.	.
4BB/)	.	.	4G\	-gnus	.	.	.	.	.	.	.	8r	.	8r	.	8r	.	.	.	.	.	.	.	.	.	.	.	.	.	.	.	.
.	.	.	.	.	.	.	.	.	.	.	.	8d\ 8B\	.	8d/	.	8g/	.	.	.	.	.	.	.	.	.	.	.	.	.	.	.	.
=9	=9	=9	=9	=9	=9	=9	=9	=9	=9	=9	=9	=9	=9	=9	=9	=9	=9	=9	=9	=9	=9	=9	=9	=9	=9	=9	=9	=9	=9	=9	=9	=9
8C/	.	2.ryy	(8.A\L	De-	.	2.r	.	2.r	2.r	.	.	8r	.	8r	.	8r	.	2.r	2.ryy	.	2.ryy	2.ryy	.	2.ryy	.	2.ryy	.	2.ryy	.	2.ryy	2.ryy	.
8r	.	.	.	.	.	.	.	.	.	.	.	8e\ 8A\	.	8c/	.	8a\	.	.	.	.	.	.	.	.	.	.	.	.	.	.	.	.
.	.	.	16c\Jk)	.	.	.	.	.	.	.	.	.	.	.	.	.	.	.	.	.	.	.	.	.	.	.	.	.	.	.	.	.
*	*	*	*	*	*	*	*	*	*	*	*	*rep	*	*	*	*	*	*	*	*	*	*	*	*	*	*	*	*	*	*	*	*
8AA/	.	.	4.c\	-i	.	.	.	.	.	.	.	8r	.	8r	.	8r	.	.	.	.	.	.	.	.	.	.	.	.	.	.	.	.
8r	.	.	.	.	.	.	.	.	.	.	.	8e\ 8A\	.	8e/	.	8cc\	.	.	.	.	.	.	.	.	.	.	.	.	.	.	.	.
*	*	*	*	*	*	*	*	*	*	*	*	*Xrep	*	*	*	*	*	*	*	*	*	*	*	*	*	*	*	*	*	*	*	*
*	*	*	*	*	*	*	*	*	*	*	*	*rep	*	*	*	*	*	*	*	*	*	*	*	*	*	*	*	*	*	*	*	*
8C/	.	.	.	.	.	.	.	.	.	.	.	8r	.	8r	.	8r	.	.	.	.	.	.	.	.	.	.	.	.	.	.	.	.
8r	.	.	8A\	qui	.	.	.	.	.	.	.	8e\ 8A\	.	8c/	.	8a\	.	.	.	.	.	.	.	.	.	.	.	.	.	.	.	.
*	*	*	*	*	*	*	*	*	*	*	*	*Xrep	*	*	*	*	*	*	*	*	*	*	*	*	*	*	*	*	*	*	*	*
=10	=10	=10	=10	=10	=10	=10	=10	=10	=10	=10	=10	=10	=10	=10	=10	=10	=10	=10	=10	=10	=10	=10	=10	=10	=10	=10	=10	=10	=10	=10	=10	=10
8D\	.	2.ryy	4F#\	tol-	.	2.r	.	2.r	2.r	.	.	8r	.	8r	.	8r	.	2.r	2.ryy	.	2.ryy	2.ryy	.	2.ryy	.	2.ryy	.	2.ryy	.	2.ryy	2.ryy	.
8r	.	.	.	.	.	.	.	.	.	.	.	8d\ 8A\	.	8c/	.	8f#/	.	.	.	.	.	.	.	.	.	.	.	.	.	.	.	.
*rep	*	*	*	*	*	*	*	*	*	*	*	*rep	*	*rep	*	*rep	*	*	*	*	*	*	*	*	*	*	*	*	*	*	*	*
8D\	.	.	8F#\	-lis	.	.	.	.	.	.	.	8r	.	8r	.	8r	.	.	.	.	.	.	.	.	.	.	.	.	.	.	.	.
8r	.	.	8F#\	pec-	.	.	.	.	.	.	.	8d\ 8A\	.	8c/	.	8f#/	.	.	.	.	.	.	.	.	.	.	.	.	.	.	.	.
*Xrep	*	*	*	*	*	*	*	*	*	*	*	*Xrep	*	*Xrep	*	*Xrep	*	*	*	*	*	*	*	*	*	*	*	*	*	*	*	*
*rep	*	*	*	*	*	*	*	*	*	*	*	*rep	*	*rep	*	*rep	*	*	*	*	*	*	*	*	*	*	*	*	*	*	*	*
8D\	.	.	8E\	-ca-	.	.	.	.	.	.	.	8r	.	8r	.	8r	.	.	.	.	.	.	.	.	.	.	.	.	.	.	.	.
8r	.	.	8F#\	-ta	.	.	.	.	.	.	.	8d\ 8A\	.	8c/	.	8f#/	.	.	.	.	.	.	.	.	.	.	.	.	.	.	.	.
*Xrep	*	*	*	*	*	*	*	*	*	*	*	*Xrep	*	*Xrep	*	*Xrep	*	*	*	*	*	*	*	*	*	*	*	*	*	*	*	*
=11	=11	=11	=11	=11	=11	=11	=11	=11	=11	=11	=11	=11	=11	=11	=11	=11	=11	=11	=11	=11	=11	=11	=11	=11	=11	=11	=11	=11	=11	=11	=11	=11
*	*	*	*	*	*	*	*	*	*	*	*	*	*	*	*	*	*	*	*	*	*	*	*	*	*	*	*	*^	*	*	*	*
8GG/	.	2.ryy	(16A\LL	mun-	.	2.r	.	2.r	2.r	.	.	8r	.	8r	.	8r	.	2.r	2.ryy	.	2.ryy	2.ryy	.	2.ryy	.	2.ryy	.	4r	2.rd	.	2.ryy	4r	.
.	.	.	16G\	.	.	.	.	.	.	.	.	.	.	.	.	.	.	.	.	.	.	.	.	.	.	.	.	.	.	.	.	.	.
8r	.	.	16B\	.	.	.	.	.	.	.	.	8d\ 8G\	.	8B/	.	8g/	.	.	.	.	.	.	.	.	.	.	.	.	.	.	.	.	.
.	.	.	16G\JJ)	.	.	.	.	.	.	.	.	.	.	.	.	.	.	.	.	.	.	.	.	.	.	.	.	.	.	.	.	.	.
*	*	*	*2\right	*	*	*	*	*	*	*	*	*rep	*	*rep	*	*rep	*	*	*	*	*	*	*	*	*	*	*	*	*	*	*	*	*
8G\	.	.	2D\	-di	.	.	.	.	.	.	.	8r	.	8r	.	8r	.	.	.	.	.	.	.	.	.	.	.	16r	.	.	.	16r	.
.	.	.	.	.	.	.	.	.	.	.	.	.	.	.	.	.	.	.	.	.	.	.	.	.	.	.	.	(16g/LL	.	.	.	(16gg\LL	.
8r	.	.	.	.	.	.	.	.	.	.	.	8d\ 8G\	.	8B/	.	8g/	.	.	.	.	.	.	.	.	.	.	.	16b/	.	.	.	16bb\	.
.	.	.	.	.	.	.	.	.	.	.	.	.	.	.	.	.	.	.	.	.	.	.	.	.	.	.	.	16dd/JJ	.	.	.	16ddd\JJ)	.
*	*	*	*	*	*	*	*	*	*	*	*	*Xrep	*	*Xrep	*	*Xrep	*	*	*	*	*	*	*	*	*	*	*	*	*	*	*	*	*
*	*	*	*	*	*	*	*	*	*	*	*	*rep	*	*rep	*	*rep	*	*	*	*	*	*	*	*	*	*	*	*	*	*	*	*	*
8GG/	.	.	.	.	.	.	.	.	.	.	.	8r	.	8r	.	8r	.	.	.	.	.	.	.	.	.	.	.	4gg/)	.	.	.	4ggg\	.
8ryy	.	.	.	.	.	.	.	.	.	.	.	8d\ 8G\	.	8B/	.	8g/	.	.	.	.	.	.	.	.	.	.	.	.	.	.	.	.	.
*	*	*	*	*	*	*	*	*	*	*	*	*Xrep	*	*Xrep	*	*Xrep	*	*	*	*	*	*	*	*	*	*	*	*	*	*	*	*	*
!!LO:LB:g=original
=12	=12	=12	=12	=12	=12	=12	=12	=12	=12	=12	=12	=12	=12	=12	=12	=12	=12	=12	=12	=12	=12	=12	=12	=12	=12	=12	=12	=12	=12	=12	=12	=12	=12
*	*	*	*	*	*	*	*	*	*	*	*	*^	*	*	*	*	*	*	*^	*	*	*	*	*	*	*^	*	*	*	*	*	*	*
*	*	*	*	*	*	*	*	*2\right	*	*	*	*	*	*	*	*	*	*	*	*	*	*	*	*	*	*	*	*	*	*	*	*	*	*	*	*
!	!LO:DY:rj	!	!LO:TX:rj:i:a:t=tutti	!	!	!	!	!	!	!	!	!	!	!	!LO:N:vis=4.	!	!	!LO:DY:rj	!	!	!	!LO:DY:rj	!	!	!LO:DY:rj	!	!	!	!	!LO:DY:rj	!	!	!LO:DY:rj	!	!	!
(4GG/	f	2.ryy	(4G\	A-	.	(4B\	.	2d\	(8.e/L	A-	.	(2.d/	4G\	.	(4B/	.	(8.g/L	f	2.r	(4G/ 4BB/	4GG\	f	2.r	(>4G/ 4GG/	f	2.r	.	(8.g/L	4B\	f	(8.gg/L	4b\	f	2.ryy	2.r	.
.	.	.	.	.	.	.	.	.	32f#/LL	.	.	.	.	.	.	.	32a/LL	.	.	.	.	.	.	.	.	.	.	32a/LL	.	.	32aa/LL	.	.	.	.	.
.	.	.	.	.	.	.	.	.	32e/JJJ	.	.	.	.	.	.	.	32g/JJJ	.	.	.	.	.	.	.	.	.	.	32g/JJJ	.	.	32gg/JJJ	.	.	.	.	.
4AA/	.	.	4A\)	.	.	4c\)	.	.	4d/	.	.	.	4A\	.	4c/	.	4f#/	.	.	4F#/ 4C/	4AA\	.	.	4A/ 4AA/	.	.	.	4f#X/	4c\	.	4ff#/	4cc\	.	.	.	.
4BB/)	.	.	4B\	-gnus	.	4d\	.	4d\	4e/)	-gnus	.	.	4B\	.	4d/)	.	4g/)	.	.	4G/ 4D/)	4BB\	.	.	4B/ 4BB/)	.	.	.	4g/)	4d\	.	4gg/)	4dd\	.	.	.	.
=13	=13	=13	=13	=13	=13	=13	=13	=13	=13	=13	=13	=13	=13	=13	=13	=13	=13	=13	=13	=13	=13	=13	=13	=13	=13	=13	=13	=13	=13	=13	=13	=13	=13	=13	=13	=13
*	*	*	*	*	*	*	*	*	*	*	*	*	*	*	*	*	*	*	*	*	*^	*	*	*	*	*	*	*	*	*	*	*	*	*	*	*
*	*	*	*	*	*	*	*	*	*	*	*	*	*	*	*	*	*	*	*	*	*	*	*	*	*	*	*	*	*	*	*	*	*2\right	*	*	*	*
4C/	.	2.ryy	4c\	De-	.	4c\	.	4e\	8.f#/L	De-	.	(2e/)	4c\	.	2e/	.	(8.a/L	.	2.r	(4A/	2E/	4C\	.	2.r	(4c\ 4C\	.	2.r	.	8.a/L	2e\	.	(8.aa/L	2ee\	.	2.ryy	2.r	.
.	.	.	.	.	.	.	.	.	16a/Jk	.	.	.	.	.	.	.	16cc/Jk)	.	.	.	.	.	.	.	.	.	.	.	16cc/Jk	.	.	16ccc/Jk)	.	.	.	.	.
4AA/	.	.	4A\	-i	.	4c\	.	4e\	4a\	-i	.	.	4A\)	.	.	.	4cc\	.	.	4c/)	.	4AA\	.	.	4A\ 4AA\)	.	.	.	4cc/	.	.	4ccc/	.	.	.	.	.
4r	.	.	8r	.	.	4r	.	4r	4r	.	.	4r	4r	.	4r	.	4r	.	.	4r	4r	4ryy	.	.	4r	.	.	.	4r	4r	.	4r	4r	.	.	.	.
!	!	!	!LO:TX:a:i:t=Solo	!	!	!	!	!	!	!	!	!	!	!	!	!	!	!	!	!	!	!	!	!	!	!	!	!	!	!	!	!	!	!	!	!	!
.	.	.	8A\	qui	.	.	.	.	.	.	.	.	.	.	.	.	.	.	.	.	.	.	.	.	.	.	.	.	.	.	.	.	.	.	.	.	.
*	*	*	*	*	*	*	*	*	*	*	*	*	*	*	*	*	*	*	*	*	*	*	*	*	*	*	*	*	*v	*v	*	*	*	*	*	*	*
*	*	*	*	*	*	*	*	*	*	*	*	*v	*v	*	*	*	*	*	*	*v	*v	*v	*	*	*	*	*	*	*	*	*v	*v	*	*	*	*
=14	=14	=14	=14	=14	=14	=14	=14	=14	=14	=14	=14	=14	=14	=14	=14	=14	=14	=14	=14	=14	=14	=14	=14	=14	=14	=14	=14	=14	=14	=14	=14	=14
!	!LO:DY:rj	!	!	!	!	!	!	!	!	!	!	!	!	!	!	!	!	!	!	!	!	!	!	!	!	!	!	!	!	!	!	!
8D\	p	2.ryy	4d\	tol-	.	2.r	.	2.r	2.r	.	.	8r	.	8r	.	8r	.	2.r	2.r	.	2.r	2.r	.	2.r	.	2.r	.	2.r	.	2.ryy	2.r	.
.	.	.	.	.	.	.	.	.	.	.	.	.	.	.	.	.	p	.	.	.	.	.	.	.	.	.	.	.	.	.	.	.
8r	.	.	.	.	.	.	.	.	.	.	.	8d\ 8A\	.	8c/	.	8f#/	.	.	.	.	.	.	.	.	.	.	.	.	.	.	.	.
*rep	*	*	*	*	*	*	*	*	*	*	*	*rep	*	*rep	*	*rep	*	*	*	*	*	*	*	*	*	*	*	*	*	*	*	*
8D\	.	.	8.A\	-lis	.	.	.	.	.	.	.	8r	.	8r	.	8r	.	.	.	.	.	.	.	.	.	.	.	.	.	.	.	.
8r	.	.	.	.	.	.	.	.	.	.	.	8d\ 8A\	.	8c/	.	8f#/	.	.	.	.	.	.	.	.	.	.	.	.	.	.	.	.
.	.	.	16A\	pec-	.	.	.	.	.	.	.	.	.	.	.	.	.	.	.	.	.	.	.	.	.	.	.	.	.	.	.	.
*Xrep	*	*	*	*	*	*	*	*	*	*	*	*Xrep	*	*Xrep	*	*Xrep	*	*	*	*	*	*	*	*	*	*	*	*	*	*	*	*
*rep	*	*	*	*	*	*	*	*	*	*	*	*rep	*	*rep	*	*rep	*	*	*	*	*	*	*	*	*	*	*	*	*	*	*	*
8D\	.	.	8.B\	-ca-	.	.	.	.	.	.	.	8r	.	8r	.	8r	.	.	.	.	.	.	.	.	.	.	.	.	.	.	.	.
8r	.	.	.	.	.	.	.	.	.	.	.	8d\ 8A\	.	8c/	.	8f#/	.	.	.	.	.	.	.	.	.	.	.	.	.	.	.	.
.	.	.	16c\	-ta	.	.	.	.	.	.	.	.	.	.	.	.	.	.	.	.	.	.	.	.	.	.	.	.	.	.	.	.
*Xrep	*	*	*	*	*	*	*	*	*	*	*	*Xrep	*	*Xrep	*	*Xrep	*	*	*	*	*	*	*	*	*	*	*	*	*	*	*	*
=15	=15	=15	=15	=15	=15	=15	=15	=15	=15	=15	=15	=15	=15	=15	=15	=15	=15	=15	=15	=15	=15	=15	=15	=15	=15	=15	=15	=15	=15	=15	=15	=15
*	*	*	*	*	*	*	*	*	*	*	*	*	*	*	*	*	*	*	*	*	*	*^	*	*	*	*^	*	*	*	*	*	*
8GG/|	.	2.ryy	(8.c\L	mun-	.	2.r	.	2.r	2.r	.	.	8r	.	8r	.	8r	.	2.r	2.r	.	2.r	4r	4ryy	.	2.r	.	4r	4ryy	.	2.r	.	2.ryy	2.r	.
8r	.	.	.	.	.	.	.	.	.	.	.	8d\ 8G\	.	8B/	.	8g/	.	.	.	.	.	.	.	.	.	.	.	.	.	.	.	.	.	.
.	.	.	16A#X\Jk)	.	.	.	.	.	.	.	.	.	.	.	.	.	.	.	.	.	.	.	.	.	.	.	.	.	.	.	.	.	.	.
8G\|	.	.	4B\	-di	.	.	.	.	.	.	.	8r	.	8r	.	8r	.	.	.	.	.	8r	8ryy	.	.	.	8r	8ryy	.	.	.	.	.	.
!	!	!	!	!	!	!	!	!	!	!	!	!	!	!	!	!	!LO:HP:a	!	!	!	!	!	!	!	!	!	!	!	!	!	!	!	!	!
(8G\L	<	.	.	.	.	.	.	.	.	.	.	(8B'/L	.	(8g/L	.	(8b/L	<	.	.	.	.	(8B'/L	(8G\L	<	.	.	(8b/L	8g\L	<	.	.	.	.	.
8F#\	.	.	4r	.	.	.	.	.	.	.	.	8B'/	.	8d#X/	.	8a/	.	.	.	.	.	8B'/	8F#\	.	.	.	8a/	8d#X\	.	.	.	.	.	.
8E\J)	[[	.	.	.	.	.	.	.	.	.	.	8B'/J)	.	8e/J)	.	8g/J)	.	.	.	.	.	8B'/J)	8E\J)	.	.	.	8g/J)	8e\J	.	.	.	.	.	.
*	*	*	*	*	*	*	*	*	*	*	*	*	*	*	*	*	*	*	*	*	*	*v	*v	*	*	*	*v	*v	*	*	*	*	*	*
!!LO:PB:g=original
=16	=16	=16	=16	=16	=16	=16	=16	=16	=16	=16	=16	=16	=16	=16	=16	=16	=16	=16	=16	=16	=16	=16	=16	=16	=16	=16	=16	=16	=16	=16	=16	=16
8D#X\	sfp	2.ryy	2B\	A-	.	2.r	.	2.r	2.r	.	.	8r	.	8r	.	8r	[	2.ryy	2.ryy	.	2.ryy	2.ryy	[	2.ryy	.	2.ryy	[	2.r	.	2.ryy	16r	.
.	.	.	.	.	.	.	.	.	.	.	.	.	.	.	.	.	.	.	.	.	.	.	.	.	.	.	.	.	.	.	(16b\LL	.
8r	.	.	.	.	.	.	.	.	.	.	.	8B/	.	8f#/	.	8b/	sfp	.	.	.	.	.	.	.	.	.	.	.	.	.	16dd#X\	.
.	.	.	.	.	.	.	.	.	.	.	.	.	.	.	.	.	.	.	.	.	.	.	.	.	.	.	.	.	.	.	16ff#\JJ	.
*	*	*	*	*	*	*	*	*	*	*	*	*rep	*	*	*	*	*	*	*	*	*	*	*	*	*	*	*	*	*	*	*	*
8D#\	.	.	.	.	.	.	.	.	.	.	.	8r	.	8r	.	8r	.	.	.	.	.	.	.	.	.	.	.	.	.	.	8bb\L)	.
8r	.	.	.	.	.	.	.	.	.	.	.	8B/	.	8f#/	.	8b/	.	.	.	.	.	.	.	.	.	.	.	.	.	.	16bb'\L	.
.	.	.	.	.	.	.	.	.	.	.	.	.	.	.	.	.	.	.	.	.	.	.	.	.	.	.	.	.	.	.	16bb'\JJ	.
*	*	*	*	*	*	*	*	*	*	*	*	*Xrep	*	*	*	*	*	*	*	*	*	*	*	*	*	*	*	*	*	*	*	*
*	*	*	*	*	*	*	*	*	*	*	*	*rep	*	*	*	*	*	*	*	*	*	*	*	*	*	*	*	*	*	*	*	*
8D#\	.	.	4A\	-gnus	.	.	.	.	.	.	.	8r	.	8r	.	8r	.	.	.	.	.	.	.	.	.	.	.	.	.	.	4bbt\	.
8r	.	.	.	.	.	.	.	.	.	.	.	8B/	.	8f#/	.	8a/	.	.	.	.	.	.	.	.	.	.	.	.	.	.	.	.
.	.	.	.	.	.	.	.	.	.	.	.	.	.	.	.	.	.	.	.	.	.	.	.	.	.	.	.	.	.	.	(16qqaa#X/LL	.
.	.	.	.	.	.	.	.	.	.	.	.	.	.	.	.	.	.	.	.	.	.	.	.	.	.	.	.	.	.	.	16qqbb/JJ)	.
*	*	*	*	*	*	*	*	*	*	*	*	*Xrep	*	*	*	*	*	*	*	*	*	*	*	*	*	*	*	*	*	*	*	*
=17	=17	=17	=17	=17	=17	=17	=17	=17	=17	=17	=17	=17	=17	=17	=17	=17	=17	=17	=17	=17	=17	=17	=17	=17	=17	=17	=17	=17	=17	=17	=17	=17
8E\	.	2.ryy	(16A\LL	De-	.	2.r	.	2.r	2.r	.	.	8r	.	8r	.	8r	.	2.ryy	2.ryy	.	2.ryy	2.ryy	.	2.ryy	.	2.ryy	.	4r	.	2.ryy	4r	.
.	.	.	16G\	.	.	.	.	.	.	.	.	.	.	.	.	.	.	.	.	.	.	.	.	.	.	.	.	.	.	.	.	.
8r	.	.	16B\	.	.	.	.	.	.	.	.	8B/	.	8e/	.	8g/	.	.	.	.	.	.	.	.	.	.	.	.	.	.	.	.
.	.	.	16A\JJ)	.	.	.	.	.	.	.	.	.	.	.	.	.	.	.	.	.	.	.	.	.	.	.	.	.	.	.	.	.
*rep	*	*	*	*	*	*	*	*	*	*	*	*rep	*	*rep	*	*rep	*	*	*	*	*	*	*	*	*	*	*	*	*	*	*	*
8E\	.	.	2G\	-i	.	.	.	.	.	.	.	8r	.	8r	.	8r	.	.	.	.	.	.	.	.	.	.	.	16r	.	.	16r	.
.	.	.	.	.	.	.	.	.	.	.	.	.	.	.	.	.	.	.	.	.	.	.	.	.	.	.	.	(16e/LL	.	.	(16ee\LL	.
8r	.	.	.	.	.	.	.	.	.	.	.	8B/	.	8e/	.	8g/	.	.	.	.	.	.	.	.	.	.	.	16g/	.	.	16gg\	.
.	.	.	.	.	.	.	.	.	.	.	.	.	.	.	.	.	.	.	.	.	.	.	.	.	.	.	.	16b/JJ)	.	.	16bb\JJ)	.
*Xrep	*	*	*	*	*	*	*	*	*	*	*	*Xrep	*	*Xrep	*	*Xrep	*	*	*	*	*	*	*	*	*	*	*	*	*	*	*	*
*rep	*	*	*	*	*	*	*	*	*	*	*	*rep	*	*rep	*	*rep	*	*	*	*	*	*	*	*	*	*	*	*	*	*	*	*
8E\	.	.	.	.	.	.	.	.	.	.	.	8r	.	8r	.	8r	.	.	.	.	.	.	.	.	.	.	.	4ee/	.	.	4eee'\	.
8r	.	.	.	.	.	.	.	.	.	.	.	8B/	.	8e/	.	8g/	.	.	.	.	.	.	.	.	.	.	.	.	.	.	.	.
*Xrep	*	*	*	*	*	*	*	*	*	*	*	*Xrep	*	*Xrep	*	*Xrep	*	*	*	*	*	*	*	*	*	*	*	*	*	*	*	*
=18	=18	=18	=18	=18	=18	=18	=18	=18	=18	=18	=18	=18	=18	=18	=18	=18	=18	=18	=18	=18	=18	=18	=18	=18	=18	=18	=18	=18	=18	=18	=18	=18
8F#\	sfp	2.ryy	2d\	A-	.	2.r	.	2.r	2.r	.	.	8r	.	8r	.	8r	.	2.ryy	2.ryy	.	2.ryy	2.ryy	.	2.ryy	.	2.ryy	.	2.r	.	2.ryy	16r	.
.	.	.	.	.	.	.	.	.	.	.	.	.	.	.	.	.	.	.	.	.	.	.	.	.	.	.	.	.	.	.	(16dd\LL	.
8r	.	.	.	.	.	.	.	.	.	.	.	8d\	.	8a/	.	8dd\	sfp	.	.	.	.	.	.	.	.	.	.	.	.	.	16ff#\	.
.	.	.	.	.	.	.	.	.	.	.	.	.	.	.	.	.	.	.	.	.	.	.	.	.	.	.	.	.	.	.	16aa\JJ	.
*	*	*	*	*	*	*	*	*	*	*	*	*rep	*	*rep	*	*	*	*	*	*	*	*	*	*	*	*	*	*	*	*	*	*
8F#\	.	.	.	.	.	.	.	.	.	.	.	8r	.	8r	.	8r	.	.	.	.	.	.	.	.	.	.	.	.	.	.	8ddd\L)	.
8r	.	.	.	.	.	.	.	.	.	.	.	8d\	.	8a/	.	8dd\	.	.	.	.	.	.	.	.	.	.	.	.	.	.	16ddd\L	.
.	.	.	.	.	.	.	.	.	.	.	.	.	.	.	.	.	.	.	.	.	.	.	.	.	.	.	.	.	.	.	16ddd\JJ	.
*	*	*	*	*	*	*	*	*	*	*	*	*Xrep	*	*Xrep	*	*	*	*	*	*	*	*	*	*	*	*	*	*	*	*	*	*
*	*	*	*	*	*	*	*	*	*	*	*	*rep	*	*rep	*	*	*	*	*	*	*	*	*	*	*	*	*	*	*	*	*	*
8F#\	.	.	4A\	-gnus	.	.	.	.	.	.	.	8r	.	8r	.	8r	.	.	.	.	.	.	.	.	.	.	.	.	.	.	4dddT\	.
8r	.	.	.	.	.	.	.	.	.	.	.	8d\	.	8a/	.	8a/	.	.	.	.	.	.	.	.	.	.	.	.	.	.	.	.
.	.	.	.	.	.	.	.	.	.	.	.	.	.	.	.	.	.	.	.	.	.	.	.	.	.	.	.	.	.	.	(16qqccc#X/LL	.
.	.	.	.	.	.	.	.	.	.	.	.	.	.	.	.	.	.	.	.	.	.	.	.	.	.	.	.	.	.	.	16qqddd/JJ)	.
*	*	*	*	*	*	*	*	*	*	*	*	*Xrep	*	*Xrep	*	*	*	*	*	*	*	*	*	*	*	*	*	*	*	*	*	*
=19	=19	=19	=19	=19	=19	=19	=19	=19	=19	=19	=19	=19	=19	=19	=19	=19	=19	=19	=19	=19	=19	=19	=19	=19	=19	=19	=19	=19	=19	=19	=19	=19
*	*	*	*	*	*	*	*	*	*	*	*	*	*	*	*	*	*	*	*	*	*	*	*	*	*	*	*	*^	*	*	*	*
*	*	*	*	*	*	*	*	*	*clefC1	*	*	*	*	*	*	*	*	*	*	*	*	*	*	*	*	*	*	*	*	*	*	*	*
8G\	.	2.ryy	(8.A#X^\L	De-	.	4r	.	4r	4r	.	.	8r	.	8r	.	8r	.	2.ryy	2.ryy	.	2.ryy	2.ryy	.	2.ryy	.	2.ryy	.	16r	2.r	.	2.ryy	16r	.
.	.	.	.	.	.	.	.	.	.	.	.	.	.	.	.	.	.	.	.	.	.	.	.	.	.	.	.	(<16g/LL	.	.	.	(16gg\LL	.
8r	.	.	.	.	.	.	.	.	.	.	.	8d\L	.	8g/L	.	8b/L	.	.	.	.	.	.	.	.	.	.	.	16b/	.	.	.	16bb\	.
.	.	.	16B\Jk)	.	.	.	.	.	.	.	.	.	.	.	.	.	.	.	.	.	.	.	.	.	.	.	.	16dd/JJ	.	.	.	16ddd\JJ	.
8G\	.	.	8B\	-i	.	4r	.	4r	4r	.	.	8d\J	.	8g/J	.	8b/J	.	.	.	.	.	.	.	.	.	.	.	4gg/)	.	.	.	4ggg\)	.
8r	.	.	8r	.	.	.	p	.	.	.	p	8r	.	8r	.	8r	.	.	.	.	.	.	.	.	.	.	.	.	.	.	.	.	.
!	!	!	!	!	!LO:DY:b	!LO:TX:b:i:t=tutti	!LO:DY:a	!	!	!	!	!	!	!	!	!	!	!	!	!	!	!	!	!	!	!	!	!	!	!	!	!	!
[4G\	.	.	4G\	qui	p	4G/	.	4g\	4g/	qui	.	[4g\	.	[4g/	.	[4g/	.	.	.	.	.	.	.	.	.	.	.	4r	.	.	.	4r	.
*	*	*	*	*	*	*	*	*	*	*	*	*	*	*	*	*	*	*	*	*	*	*	*	*	*	*	*	*v	*v	*	*	*	*
!!LO:PB:g=original
=20	=20	=20	=20	=20	=20	=20	=20	=20	=20	=20	=20	=20	=20	=20	=20	=20	=20	=20	=20	=20	=20	=20	=20	=20	=20	=20	=20	=20	=20	=20	=20	=20
!	!LO:DY:rj	!	!LO:TX:a:i:t=tutti	!	!	!	!	!	!LO:TX:rj:a:i:t=tutti	!	!	!	!	!	!	!	!	!	!	!	!	!	!	!	!	!	!	!	!	!	!	!
(4.G\_	p	2.ryy	4G\	tol-	.	4G/	.	4g\	4g/	tol-	.	4.g\]	.	4.g/]	.	(4.g/]	.	2.ryy	2.ryy	.	2.ryy	2.r	.	2.r	.	2.r	.	2.r	.	2.ryy	2.r	.
.	.	.	8G\	-lis	.	8G\	.	8g\	8g/	-lis	.	.	.	.	.	.	.	.	.	.	.	.	.	.	.	.	.	.	.	.	.	.
8G\L]	.	.	8G\	pec-	.	8g\	.	8g\	8g/	pec-	.	(8g\L	.	(8g/L	.	8g/L	.	.	.	.	.	.	.	.	.	.	.	.	.	.	.	.
8F#\	.	.	8F#\	-ca-	.	8f#\	.	8f#\	8f#/	-ca-	.	8f#\	.	8f#/	.	8f#/	.	.	.	.	.	.	.	.	.	.	.	.	.	.	.	.
8E\J)	.	.	8E\	-ta	.	8e\	.	8e\	8e/	-ta	.	8e\J)	.	8e/J)	.	8e/J)	.	.	.	.	.	.	.	.	.	.	.	.	.	.	.	.
=21	=21	=21	=21	=21	=21	=21	=21	=21	=21	=21	=21	=21	=21	=21	=21	=21	=21	=21	=21	=21	=21	=21	=21	=21	=21	=21	=21	=21	=21	=21	=21	=21
*	*	*	*	*	*	*	*	*	*	*	*	*	*	*	*	*	*	*	*	*	*	*^	*	*	*	*	*	*^	*	*	*	*
*	*	*	*	*	*	*2\right	*	*	*2\right	*	*	*2\right	*	*	*	*	*	*	*	*	*	*	*	*	*	*	*	*	*	*	*	*	*	*
*tremolo	*	*	*	*	*	*	*	*	*	*	*	*tremolo	*	*tremolo	*	*tremolo	*	*	*	*	*	*	*	*	*	*	*	*	*	*	*	*	*	*
!	!	!	!	!	!	!	!	!	!	!	!	!	!	!	!	!	!LO:DY:a	!	!	!	!	!	!	!	!	!	!LO:TX:t=P:problem=zapis poprawiany	!	!	!	!	!	!	!
32BB/LLL	<	2.ryy	(4BB/	mun-	.	2.d#X\	.	2.f#\	(2b\	mun-	.	32d#X\LLL	.	32f#/LLL	<	32b\LLL	<	2.ryy	2.ryy	.	2.ryy	[2.d#X/	2B\	.	2.r	.	2.r	.	(2b/	2.f#X\	<	2.ryy	(16b\LL	.
32BB/	.	.	.	.	.	.	.	.	.	.	.	32d#\	.	32f#/	.	32b\	.	.	.	.	.	.	.	.	.	.	.	.	.	.	.	.	.	.
32BB/	.	.	.	.	.	.	.	.	.	.	.	32d#\	.	32f#/	.	32b\	.	.	.	.	.	.	.	.	.	.	.	.	.	.	.	.	16dd#X\	.
32BB/	.	.	.	.	.	.	.	.	.	.	.	32d#\	.	32f#/	.	32b\	.	.	.	.	.	.	.	.	.	.	.	.	.	.	.	.	.	.
32BB/	.	.	.	.	.	.	.	.	.	.	.	32d#\	.	32f#/	.	32b\	.	.	.	.	.	.	.	.	.	.	.	.	.	.	.	.	16ff#\	.
32BB/	.	.	.	.	.	.	.	.	.	.	.	32d#\	.	32f#/	.	32b\	.	.	.	.	.	.	.	.	.	.	.	.	.	.	.	.	.	.
32BB/	.	.	.	.	.	.	.	.	.	.	.	32d#\	.	32f#/	.	32b\	.	.	.	.	.	.	.	.	.	.	.	.	.	.	.	.	16bb\JJ)	.
32BB/	.	.	.	.	.	.	.	.	.	.	.	32d#\	.	32f#/	.	32b\	.	.	.	.	.	.	.	.	.	.	.	.	.	.	.	.	.	.
*	*	*	*	*	*	*	*	*	*	*	*	*	*	*	*	*	*	*	*	*	*	*	*	*	*	*	*	*	*	*	*	*	*rep	*
32BB/	.	.	4B\	.	.	.	.	.	.	.	.	32d#\	.	32f#/	.	32b\	.	.	.	.	.	.	.	.	.	.	.	.	.	.	.	.	(16b\LL	.
32BB/	.	.	.	.	.	.	.	.	.	.	.	32d#\	.	32f#/	.	32b\	.	.	.	.	.	.	.	.	.	.	.	.	.	.	.	.	.	.
32BB/	.	.	.	.	.	.	.	.	.	.	.	32d#\	.	32f#/	.	32b\	.	.	.	.	.	.	.	.	.	.	.	.	.	.	.	.	16dd#X\	.
32BB/	.	.	.	.	.	.	.	.	.	.	.	32d#\	.	32f#/	.	32b\	.	.	.	.	.	.	.	.	.	.	.	.	.	.	.	.	.	.
32BB/	.	.	.	.	.	.	.	.	.	.	.	32d#\	.	32f#/	.	32b\	.	.	.	.	.	.	.	.	.	.	.	.	.	.	.	.	16ff#\	.
32BB/	.	.	.	.	.	.	.	.	.	.	.	32d#\	.	32f#/	.	32b\	.	.	.	.	.	.	.	.	.	.	.	.	.	.	.	.	.	.
32BB/	.	.	.	.	.	.	.	.	.	.	.	32d#\	.	32f#/	.	32b\	.	.	.	.	.	.	.	.	.	.	.	.	.	.	.	.	16bb\JJ)	.
32BB/JJJ	.	.	.	.	.	.	.	.	.	.	.	32d#\	.	32f#/	.	32b\JJJ	.	.	.	.	.	.	.	.	.	.	.	.	.	.	.	.	.	.
*	*	*	*	*	*	*	*	*	*	*	*	*	*	*	*	*	*	*	*	*	*	*	*	*	*	*	*	*	*	*	*	*	*Xrep	*
32AA/LLL	.	.	4A\)	.	.	.	.	.	4cc\)	.	.	32d#\	.	32f#/	.	32cc\LLL	.	.	.	.	.	.	4A\	.	.	.	.	.	4cc/	.	.	.	(16cc\LL	.
32AA/	.	.	.	.	.	.	.	.	.	.	.	32d#\	.	32f#/	.	32cc\	.	.	.	.	.	.	.	.	.	.	.	.	.	.	.	.	.	.
32AA/	.	.	.	.	.	.	.	.	.	.	.	32d#\	.	32f#/	.	32cc\	.	.	.	.	.	.	.	.	.	.	.	.	.	.	.	.	16dd#\	.
32AA/	.	.	.	.	.	.	.	.	.	.	.	32d#\	.	32f#/	.	32cc\	.	.	.	.	.	.	.	.	.	.	.	.	.	.	.	.	.	.
32AA/	.	.	.	.	.	.	.	.	.	.	.	32d#\	.	32f#/	.	32cc\	.	.	.	.	.	.	.	.	.	.	.	.	.	.	.	.	16ff#\	.
32AA/	.	.	.	.	.	.	.	.	.	.	.	32d#\	.	32f#/	.	32cc\	.	.	.	.	.	.	.	.	.	.	.	.	.	.	.	.	.	.
32AA/	.	.	.	.	.	.	.	.	.	.	.	32d#\	.	32f#/	.	32cc\	.	.	.	.	.	.	.	.	.	.	.	.	.	.	.	.	16ccc\JJ)	.
32AA/JJJ	[[	.	.	.	.	.	.	.	.	.	.	32d#\JJJ	.	32f#/JJJ	.	32cc\JJJ	[[ >	.	.	.	.	.	.	.	.	.	.	.	.	.	[	.	.	.
=22	=22	=22	=22	=22	=22	=22	=22	=22	=22	=22	=22	=22	=22	=22	=22	=22	=22	=22	=22	=22	=22	=22	=22	=22	=22	=22	=22	=22	=22	=22	=22	=22	=22	=22
!	!	!	!	!	!	!	!	!	!	!	!	!	!	!	!	!	!LO:DY:a	!	!	!	!	!	!	!	!	!	!	!	!	!	!	!	!	!
32BB/LLL	>	2.ryy	2B\	-di	.	2d#X\	.	2f#\	2b\	-di	.	32d#X\LLL	.	32f#/LLL	[ >	32b\LLL	.	2.ryy	2.ryy	.	2.ryy	2d#X/]	2B\	.	2.r	.	2.r	.	2b/)	2f#\	>	2.ryy	(16b\LL	.
32BB/	.	.	.	.	.	.	.	.	.	.	.	32d#\	.	32f#/	.	32b\	.	.	.	.	.	.	.	.	.	.	.	.	.	.	.	.	.	.
32BB/	.	.	.	.	.	.	.	.	.	.	.	32d#\	.	32f#/	.	32b\	.	.	.	.	.	.	.	.	.	.	.	.	.	.	.	.	16dd#X\	.
32BB/	.	.	.	.	.	.	.	.	.	.	.	32d#\	.	32f#/	.	32b\	.	.	.	.	.	.	.	.	.	.	.	.	.	.	.	.	.	.
32BB/	.	.	.	.	.	.	.	.	.	.	.	32d#\	.	32f#/	.	32b\	.	.	.	.	.	.	.	.	.	.	.	.	.	.	.	.	16ff#\	.
32BB/	.	.	.	.	.	.	.	.	.	.	.	32d#\	.	32f#/	.	32b\	.	.	.	.	.	.	.	.	.	.	.	.	.	.	.	.	.	.
32BB/	.	.	.	.	.	.	.	.	.	.	.	32d#\	.	32f#/	.	32b\	.	.	.	.	.	.	.	.	.	.	.	.	.	.	.	.	16bb\JJ)	.
32BB/JJJ	.	.	.	.	.	.	.	.	.	.	.	32d#\JJJ	.	32f#/JJJ	]	32b\JJJ	.	.	.	.	.	.	.	.	.	.	.	.	.	.	.	.	.	.
*Xtremolo	*	*	*	*	*	*	*	*	*	*	*	*Xtremolo	*	*Xtremolo	*	*Xtremolo	*	*	*	*	*	*	*	*	*	*	*	*	*	*	*	*	*rep	*
4BB/	]	.	.	.	.	.	.	.	.	.	.	4d#\	.	4f#/	.	4b\	]	.	.	.	.	.	.	.	.	.	.	.	.	.	.	.	(16b\LL	.
.	.	.	.	.	.	.	.	.	.	.	.	.	.	.	.	.	.	.	.	.	.	.	.	.	.	.	.	.	.	.	]	.	16dd#\	.
.	.	.	.	.	.	.	.	.	.	.	.	.	.	.	.	.	.	.	.	.	.	.	.	.	.	.	.	.	.	.	.	.	16ff#\	.
.	.	.	.	.	.	.	.	.	.	.	.	.	.	.	.	.	.	.	.	.	.	.	.	.	.	.	.	.	.	.	.	.	16bb\JJ)	.
*	*	*	*	*	*	*	*	*	*	*	*	*	*	*	*	*	*	*	*	*	*	*	*	*	*	*	*	*	*	*	*	*	*Xrep	*
!	!	!	!LO:TX:a:t=Solo	!	!	!	!	!	!	!	!	!	!	!	!	!	!	!	!	!	!	!	!	!	!	!	!	!	!	!	!	!	!	!
4C/	.	.	4A\	pec-	.	4r	.	4r	4r	.	.	4c\	.	(8e/L	.	4a/	]	.	.	.	.	4rB	4rAA	.	.	.	.	.	4ree	4rf	.	.	(16a\LL	.
.	.	.	.	.	.	.	.	.	.	.	.	.	.	.	.	.	.	.	.	.	.	.	.	.	.	.	.	.	.	.	.	.	16cc\	.
.	.	.	.	.	.	.	.	.	.	.	.	.	.	8e-X/J)	.	.	.	.	.	.	.	.	.	.	.	.	.	.	.	.	.	.	16ee\	.
.	.	.	.	.	.	.	.	.	.	.	.	.	.	.	.	.	.	.	.	.	.	.	.	.	.	.	.	.	.	.	.	.	16aa\JJ)	.
*	*	*	*	*	*	*	*	*	*	*	*	*	*	*	*	*	*	*	*	*	*	*v	*v	*	*	*	*	*	*v	*v	*	*	*	*
=23	=23	=23	=23	=23	=23	=23	=23	=23	=23	=23	=23	=23	=23	=23	=23	=23	=23	=23	=23	=23	=23	=23	=23	=23	=23	=23	=23	=23	=23	=23	=23	=23
!	!LO:DY:rj	!	!	!	!	!	!	!	!	!	!	!	!	!	!	!	!	!	!	!	!	!	!	!	!	!	!	!	!	!	!	!
8D\	p	2.ryy	(8G\L	-ca-	.	2.r	.	2.r	2.r	.	.	8r	.	8r	.	8r	p	2.ryy	2.ryy	.	2.ryy	2.r	.	2.r	.	2.r	.	2.r	]	2.ryy	8gg\L	.
8r	.	.	8E\J)	.	.	.	.	.	.	.	.	8d\ 8G\	.	8B/	.	8g/	.	.	.	.	.	.	.	.	.	.	.	.	.	.	8ee\J	.
*rep	*	*	*	*	*	*	*	*	*	*	*	*rep	*	*rep	*	*rep	*	*	*	*	*	*	*	*	*	*	*	*	*	*	*	*
8D\	.	.	8D\	-ta	.	.	.	.	.	.	.	8r	.	8r	.	8r	.	.	.	.	.	.	.	.	.	.	.	.	.	.	8dd\	.
8r	.	.	8D\	pec-	.	.	.	.	.	.	.	8d\ 8G\	.	8B/	.	8g/	.	.	.	.	.	.	.	.	.	.	.	.	.	.	8r	.
*Xrep	*	*	*	*	*	*	*	*	*	*	*	*Xrep	*	*Xrep	*	*Xrep	*	*	*	*	*	*	*	*	*	*	*	*	*	*	*	*
*rep	*	*	*	*	*	*	*	*	*	*	*	*rep	*	*rep	*	*rep	*	*	*	*	*	*	*	*	*	*	*	*	*	*	*	*
8D\	.	.	8G\	-ca-	.	.	.	.	.	.	.	8r	.	8r	.	8r	.	.	.	.	.	.	.	.	.	.	.	.	.	.	4r	.
8r	.	.	8B\	-ta	.	.	.	.	.	.	.	8d\ 8G\	.	8B/	.	8g/	.	.	.	.	.	.	.	.	.	.	.	.	.	.	.	.
*Xrep	*	*	*	*	*	*	*	*	*	*	*	*Xrep	*	*Xrep	*	*Xrep	*	*	*	*	*	*	*	*	*	*	*	*	*	*	*	*
=24	=24	=24	=24	=24	=24	=24	=24	=24	=24	=24	=24	=24	=24	=24	=24	=24	=24	=24	=24	=24	=24	=24	=24	=24	=24	=24	=24	=24	=24	=24	=24	=24
8D\	.	2.ryy	(2d\	mun-	.	2.r	.	2.r	2.r	.	.	8r	.	8r	.	8r	.	2.ryy	2.ryy	.	2.ryy	2.r	.	2.r	.	2.r	.	2.r	.	2.ryy	2.r	.
8r	.	.	.	.	.	.	.	.	.	.	.	8d\ 8A\	.	8c/	.	8f#/	.	.	.	.	.	.	.	.	.	.	.	.	.	.	.	.
*rep	*	*	*	*	*	*	*	*	*	*	*	*rep	*	*rep	*	*rep	*	*	*	*	*	*	*	*	*	*	*	*	*	*	*	*
8D\	.	.	.	.	.	.	.	.	.	.	.	8r	.	8r	.	8r	.	.	.	.	.	.	.	.	.	.	.	.	.	.	.	.
8r	.	.	.	.	.	.	.	.	.	.	.	8d\ 8A\	.	8c/	.	8f#/	.	.	.	.	.	.	.	.	.	.	.	.	.	.	.	.
.	.	.	16qqe/LL	.	.	.	.	.	.	.	.	.	.	.	.	.	.	.	.	.	.	.	.	.	.	.	.	.	.	.	.	.
.	.	.	16qqd/JJ	.	.	.	.	.	.	.	.	.	.	.	.	.	.	.	.	.	.	.	.	.	.	.	.	.	.	.	.	.
*Xrep	*	*	*	*	*	*	*	*	*	*	*	*Xrep	*	*Xrep	*	*Xrep	*	*	*	*	*	*	*	*	*	*	*	*	*	*	*	*
*rep	*	*	*	*	*	*	*	*	*	*	*	*rep	*	*rep	*	*rep	*	*	*	*	*	*	*	*	*	*	*	*	*	*	*	*
8D\	.	.	8c\L)	.	.	.	.	.	.	.	.	8r	.	8r	.	8r	.	.	.	.	.	.	.	.	.	.	.	.	.	.	.	.
8r	.	.	8A\J	.	.	.	.	.	.	.	.	8d\ 8A\	.	8c/	.	8f#/	.	.	.	.	.	.	.	.	.	.	.	.	.	.	.	.
*Xrep	*	*	*	*	*	*	*	*	*	*	*	*Xrep	*	*Xrep	*	*Xrep	*	*	*	*	*	*	*	*	*	*	*	*	*	*	*	*
!!LO:PB:g=original
=25	=25	=25	=25	=25	=25	=25	=25	=25	=25	=25	=25	=25	=25	=25	=25	=25	=25	=25	=25	=25	=25	=25	=25	=25	=25	=25	=25	=25	=25	=25	=25	=25
*	*	*	*^	*	*	*	*	*	*	*	*	*	*	*	*	*	*	*	*	*	*	*	*	*	*	*	*	*	*	*	*	*
8G\	.	2.ryy	4.G/	4r	-dis	.	4r	.	4r	4r	.	.	8r	.	8r	.	8r	.	2.ryy	2.ryy	.	2.ryy	4r	.	4r	.	4r	.	2.r	.	2.ryy	2.r	.
8r	.	.	.	.	.	.	.	.	.	.	.	.	8d\L 8G\	.	8B/L	.	8g/L	.	.	.	.	.	.	.	.	.	.	.	.	.	.	.	.
8GG/	.	.	.	4r	.	.	4r	.	4r	4r	.	.	8d\J 8G\	.	8B/J	.	8g/J	.	.	.	.	.	4r	.	4r	.	4r	.	.	.	.	.	.
.	.	.	.	.	.	.	.	.	.	.	.	.	.	p	.	.	.	.	.	.	.	.	.	.	.	.	.	.	.	.	.	.	.
8r	.	.	8rBB	.	.	.	.	.	.	.	.	.	8r	.	8r	.	8r	.	.	.	.	.	.	.	.	.	.	.	.	.	.	.	.
!	!	!	!LO:TX:a:i:t=tutti	!	!	!	!	!	!	!	!	!	!	!	!	!	!	!	!	!	!	!	!	!	!	!	!	!	!	!	!	!	!
8.C^/L	.	.	4rBByy	8.G\	miſ-	.	8.G/	.	8.g\	8.g^\	miſ-	.	8.c/L	.	8.e-X/L 8.G^/	.	8.g^>/L	.	.	.	.	.	8.c\L 8.C\	.	8.g/L 8.G^</	.	8.g/L 8.e-'^>/	.	.	.	.	.	.
16C/Jk	.	.	.	16G\	-se	.	16G/	.	16g\	16g\	-se-	.	16c/Jk	.	16e-/Jk 16G/	.	16g/Jk	.	.	.	.	.	16c\Jk 16C\	.	16g/Jk 16G/	.	16g/Jk 16e-'/	.	.	.	.	.	.
*	*	*	*v	*v	*	*	*	*	*	*	*	*	*	*	*	*	*	*	*	*	*	*	*	*	*	*	*	*	*	*	*	*	*
=26	=26	=26	=26	=26	=26	=26	=26	=26	=26	=26	=26	=26	=26	=26	=26	=26	=26	=26	=26	=26	=26	=26	=26	=26	=26	=26	=26	=26	=26	=26	=26	=26
*tremolo	*	*	*	*	*	*	*	*	*	*	*	*tremolo	*	*tremolo	*	*tremolo	*	*	*	*	*	*	*	*	*	*	*	*	*	*	*	*
32GG/LLL	.	2.ryy	4G\	re-	.	4G/	.	4g\	4g\	-re-	.	32B/LLL	.	32d/LLL 32G/	.	32g/LLL	.	2.ryy	2.ryy	.	2.ryy	4.B\ 4.GG\	.	4.g/ 4.G/	.	4.g/ 4.d'/	.	2.r	.	2.ryy	2.r	.
32GG/	.	.	.	.	.	.	.	.	.	.	.	32B/	.	32d/ 32G/	.	32g/	.	.	.	.	.	.	.	.	.	.	.	.	.	.	.	.
32GG/	.	.	.	.	.	.	.	.	.	.	.	32B/	.	32d/ 32G/	.	32g/	.	.	.	.	.	.	.	.	.	.	.	.	.	.	.	.
32GG/	.	.	.	.	.	.	.	.	.	.	.	32B/	.	32d/ 32G/	.	32g/	.	.	.	.	.	.	.	.	.	.	.	.	.	.	.	.
32GG/	.	.	.	.	.	.	.	.	.	.	.	32B/	.	32d/ 32G/	.	32g/	.	.	.	.	.	.	.	.	.	.	.	.	.	.	.	.
32GG/	.	.	.	.	.	.	.	.	.	.	.	32B/	.	32d/ 32G/	.	32g/	.	.	.	.	.	.	.	.	.	.	.	.	.	.	.	.
32GG/	.	.	.	.	.	.	.	.	.	.	.	32B/	.	32d/ 32G/	.	32g/	.	.	.	.	.	.	.	.	.	.	.	.	.	.	.	.
32GG/JJJ	.	.	.	.	.	.	.	.	.	.	.	32B/JJJ	.	32d/JJJ 32G/	.	32g/JJJ	.	.	.	.	.	.	.	.	.	.	.	.	.	.	.	.
*Xtremolo	*	*	*	*	*	*	*	*	*	*	*	*Xtremolo	*	*Xtremolo	*	*Xtremolo	*	*	*	*	*	*	*	*	*	*	*	*	*	*	*	*
8GG/	.	.	8G\	-re	.	8G/	.	8g\	8g\	-re	.	8B/	.	8d/ 8G/	.	8g/	.	.	.	.	.	.	.	.	.	.	.	.	.	.	.	.
8r	.	.	8r	.	.	8r	.	8r	8r	.	.	8r	.	8r	.	8r	.	.	.	.	.	8r	.	8r	.	8r	.	.	.	.	.	.
8.C^/L	.	.	8.G\	miſ-	.	8.G/	.	8.g\	8.g^\	miſ-	.	8.c/L	.	8.e-X/L 8.G^/	.	8.g^>/L	.	.	.	.	.	8.c\L 8.C\	.	8.g/L 8.G^/	.	8.g/L 8.e-'^>/	.	.	.	.	.	.
16C/Jk	.	.	16G\	-se-	.	16G/	.	16g\	16g\	-se-	.	16c/Jk	.	16e-/Jk 16G/	.	16g/Jk	.	.	.	.	.	16c\Jk 16C\	.	16g/Jk 16G/	.	16g/Jk 16e-'/	.	.	.	.	.	.
=27	=27	=27	=27	=27	=27	=27	=27	=27	=27	=27	=27	=27	=27	=27	=27	=27	=27	=27	=27	=27	=27	=27	=27	=27	=27	=27	=27	=27	=27	=27	=27	=27
*tremolo	*	*	*	*	*	*	*	*	*	*	*	*tremolo	*	*tremolo	*	*tremolo	*	*	*	*	*	*	*	*	*	*	*	*	*	*	*	*
32GG/LLL	.	2.ryy	4G\	-re-	.	4G/	.	4g\	4g\	-re-	.	32B/LLL	.	32d/LLL 32G/	.	32g/LLL	.	2.ryy	2.ryy	.	2.ryy	4.B\ 4.GG\	.	4.g/ 4.G/	.	4.g/ 4.d'/	.	2.r	.	2.ryy	2.r	.
32GG/	.	.	.	.	.	.	.	.	.	.	.	32B/	.	32d/ 32G/	.	32g/	.	.	.	.	.	.	.	.	.	.	.	.	.	.	.	.
32GG/	.	.	.	.	.	.	.	.	.	.	.	32B/	.	32d/ 32G/	.	32g/	.	.	.	.	.	.	.	.	.	.	.	.	.	.	.	.
32GG/	.	.	.	.	.	.	.	.	.	.	.	32B/	.	32d/ 32G/	.	32g/	.	.	.	.	.	.	.	.	.	.	.	.	.	.	.	.
32GG/	.	.	.	.	.	.	.	.	.	.	.	32B/	.	32d/ 32G/	.	32g/	.	.	.	.	.	.	.	.	.	.	.	.	.	.	.	.
32GG/	.	.	.	.	.	.	.	.	.	.	.	32B/	.	32d/ 32G/	.	32g/	.	.	.	.	.	.	.	.	.	.	.	.	.	.	.	.
32GG/	.	.	.	.	.	.	.	.	.	.	.	32B/	.	32d/ 32G/	.	32g/	.	.	.	.	.	.	.	.	.	.	.	.	.	.	.	.
32GG/JJJ	.	.	.	.	.	.	.	.	.	.	.	32B/JJJ	.	32d/JJJ 32G/	.	32g/JJJ	.	.	.	.	.	.	.	.	.	.	.	.	.	.	.	.
*Xtremolo	*	*	*	*	*	*	*	*	*	*	*	*Xtremolo	*	*Xtremolo	*	*Xtremolo	*	*	*	*	*	*	*	*	*	*	*	*	*	*	*	*
8GG/	.	.	8G\	-re	.	8G/	.	8g\	8g\	-re	.	8B/	.	8d/ 8G/	.	8g/	.	.	.	.	.	.	.	.	.	.	.	.	.	.	.	.
!	!	!	!LO:TX:a:i:t=Solo	!	!	!	!	!	!	!	!	!	!	!	!	!	!	!	!	!	!	!	!	!	!	!	!	!	!	!	!	!
8r	.	.	(8D\L	miſ-	.	8r	.	8r	8r	.	.	8r	.	8r	.	8r	.	.	.	.	.	8r	.	8r	.	8r	.	.	.	.	.	.
4r	.	.	8G\J)	.	.	4r	.	4r	4r	.	.	4r	.	4r	.	4r	.	.	.	.	.	4r	.	4r	.	4r	.	.	.	.	.	.
.	.	.	8B\	-se-	.	.	.	.	.	.	.	.	.	.	.	.	.	.	.	.	.	.	.	.	.	.	.	.	.	.	.	.
=28	=28	=28	=28	=28	=28	=28	=28	=28	=28	=28	=28	=28	=28	=28	=28	=28	=28	=28	=28	=28	=28	=28	=28	=28	=28	=28	=28	=28	=28	=28	=28	=28
8D\	.	2.ryy	(2d\	-re-	.	2.r	.	2.r	2.r	.	.	8r	.	8r	.	8r	.	2.ryy	2.ryy	.	2.ryy	2.r	.	2.r	.	2.r	.	2.r	.	2.ryy	2.r	.
8r	.	.	.	.	.	.	.	.	.	.	.	8d\ 8A\	.	8c/	.	8f#/	.	.	.	.	.	.	.	.	.	.	.	.	.	.	.	.
*rep	*	*	*	*	*	*	*	*	*	*	*	*rep	*	*rep	*	*rep	*	*	*	*	*	*	*	*	*	*	*	*	*	*	*	*
8D\	.	.	.	.	.	.	.	.	.	.	.	8r	.	8r	.	8r	.	.	.	.	.	.	.	.	.	.	.	.	.	.	.	.
8r	.	.	.	.	.	.	.	.	.	.	.	8d\ 8A\	.	8c/	.	8f#/	.	.	.	.	.	.	.	.	.	.	.	.	.	.	.	.
*Xrep	*	*	*	*	*	*	*	*	*	*	*	*Xrep	*	*Xrep	*	*Xrep	*	*	*	*	*	*	*	*	*	*	*	*	*	*	*	*
!	!	!	!LO:TX:t=P:problem=klamra łukowa	!	!	!	!	!	!	!	!	!	!	!	!	!	!	!	!	!	!	!	!	!	!	!	!	!	!	!	!	!
*rep	*	*	*	*	*	*	*	*	*	*	*	*rep	*	*rep	*	*rep	*	*	*	*	*	*	*	*	*	*	*	*	*	*	*	*
8D\	.	.	12A\L	.	.	.	.	.	.	.	.	8r	.	8r	.	8r	.	.	.	.	.	.	.	.	.	.	.	.	.	.	.	.
.	.	.	12c\	.	.	.	.	.	.	.	.	.	.	.	.	.	.	.	.	.	.	.	.	.	.	.	.	.	.	.	.	.
8r	.	.	.	.	.	.	.	.	.	.	.	8d\ 8A\	.	8c/	.	8f#/	.	.	.	.	.	.	.	.	.	.	.	.	.	.	.	.
.	.	.	12B\J	.	.	.	.	.	.	.	.	.	.	.	.	.	.	.	.	.	.	.	.	.	.	.	.	.	.	.	.	.
*Xrep	*	*	*	*	*	*	*	*	*	*	*	*Xrep	*	*Xrep	*	*Xrep	*	*	*	*	*	*	*	*	*	*	*	*	*	*	*	*
=29	=29	=29	=29	=29	=29	=29	=29	=29	=29	=29	=29	=29	=29	=29	=29	=29	=29	=29	=29	=29	=29	=29	=29	=29	=29	=29	=29	=29	=29	=29	=29	=29
*	*	*	*^	*	*	*	*	*	*	*	*	*	*	*	*	*	*	*	*	*	*	*	*	*	*	*	*	*	*	*	*	*
8G\	.	2.ryy	4r	4.G\)	re	.	4r	.	4r	4r	.	.	8r	.	8r	.	8r	.	2.ryy	2.ryy	.	2.ryy	4r	.	4r	.	4r	.	2.r	.	2.ryy	2.r	.
8r	.	.	.	.	.	.	.	.	.	.	.	.	8d\L 8G\	.	8B/L	.	8g/L	.	.	.	.	.	.	.	.	.	.	.	.	.	.	.	.
8GG/	.	.	4r	.	.	.	4r	.	4r	4r	.	.	8d\J 8G\	.	8B/J	.	8g/J	.	.	.	.	.	4r	.	4r	.	4r	.	.	.	.	.	.
8r	.	.	.	8r	.	.	.	.	.	.	.	.	8r	.	8r	.	8r	.	.	.	.	.	.	.	.	.	.	.	.	.	.	.	.
!	!	!	!	!LO:TX:a:i:t=tutti	!	!	!	!	!	!	!	!	!	!	!	!	!	!	!	!	!	!	!	!	!	!	!	!	!	!	!	!	!
8.C^/L	.	.	4ryy	8.G\	miſ-	.	8.G/	.	8.g\	8.g/	miſ-	.	8.c^<\L	.	8.e-X/L 8.G^>/	.	8.g^>/L	.	.	.	.	.	8.c\^L 8.C\	.	8.g/L 8.G^>/	.	8.g/L 8.eX^>/	.	.	.	.	.	.
16C/Jk	.	.	.	16G\	-se	.	16G/	.	16g\	16g/	-se	.	16c\Jk	.	16e-/Jk 16G/	.	16g/Jk	.	.	.	.	.	16c\Jk 16C\	.	16g/Jk 16G/	.	16g/Jk 16e/	.	.	.	.	.	.
*	*	*	*v	*v	*	*	*	*	*	*	*	*	*	*	*	*	*	*	*	*	*	*	*	*	*	*	*	*	*	*	*	*	*
!!LO:PB:g=original
=30	=30	=30	=30	=30	=30	=30	=30	=30	=30	=30	=30	=30	=30	=30	=30	=30	=30	=30	=30	=30	=30	=30	=30	=30	=30	=30	=30	=30	=30	=30	=30	=30
*	*	*	*	*	*	*	*	*	*	*	*	*	*	*	*	*	*	*	*	*	*	*^	*	*	*	*	*	*	*	*	*	*
*tremolo	*	*	*	*	*	*	*	*	*	*	*	*tremolo	*	*tremolo	*	*tremolo	*	*	*	*	*	*	*	*	*	*	*	*	*	*	*	*	*
32GG/LLL	.	2.ryy	4G\	re	.	4G/	.	4g\	4g/	.	.	32B/LLL	.	32d/LLL 32G/	.	32g/LLL	.	2.r	2.r	.	2.r	4.B\	4.GG\	.	4.g/ 4.G/	.	4.g/ 4.d/	.	2.ryy	.	2.ryy	2.ryy	.
32GG/	.	.	.	.	.	.	.	.	.	.	.	32B/	.	32d/ 32G/	.	32g/	.	.	.	.	.	.	.	.	.	.	.	.	.	.	.	.	.
32GG/	.	.	.	.	.	.	.	.	.	.	.	32B/	.	32d/ 32G/	.	32g/	.	.	.	.	.	.	.	.	.	.	.	.	.	.	.	.	.
32GG/	.	.	.	.	.	.	.	.	.	.	.	32B/	.	32d/ 32G/	.	32g/	.	.	.	.	.	.	.	.	.	.	.	.	.	.	.	.	.
32GG/	.	.	.	.	.	.	.	.	.	.	.	32B/	.	32d/ 32G/	.	32g/	.	.	.	.	.	.	.	.	.	.	.	.	.	.	.	.	.
32GG/	.	.	.	.	.	.	.	.	.	.	.	32B/	.	32d/ 32G/	.	32g/	.	.	.	.	.	.	.	.	.	.	.	.	.	.	.	.	.
32GG/	.	.	.	.	.	.	.	.	.	.	.	32B/	.	32d/ 32G/	.	32g/	.	.	.	.	.	.	.	.	.	.	.	.	.	.	.	.	.
32GG/JJJ	.	.	.	.	.	.	.	.	.	.	.	32B/JJJ	.	32d/JJJ 32G/	.	32g/JJJ	.	.	.	.	.	.	.	.	.	.	.	.	.	.	.	.	.
*Xtremolo	*	*	*	*	*	*	*	*	*	*	*	*Xtremolo	*	*Xtremolo	*	*Xtremolo	*	*	*	*	*	*	*	*	*	*	*	*	*	*	*	*	*
8GG/	.	.	8G\	-re	.	8G/	.	8g\	8g/	.	.	8B/	.	8d/ 8G/	.	8g/	.	.	.	.	.	.	.	.	.	.	.	.	.	.	.	.	.
8r	.	.	8r	.	.	8r	.	8r	8r	.	.	8r	.	8r	.	8r	.	.	.	.	.	8r	8r	.	8r	.	8r	.	.	.	.	.	.
8.C^>/L	.	.	8.G^\	miſ-	.	8.G/	.	8.g\	8.g/	.	.	8.c/L	.	8.e-X/L 8.G^/	.	8.g^>/L	.	.	.	.	.	8.c\L 8.C\	4ryy	.	8.g/L 8.G/	.	8.g/L 8.e-^>/	.	.	.	.	.	.
16C/Jk	.	.	16G\	-se-	.	16G/	.	16g\	16g/	.	.	16c/Jk	.	16e-/Jk 16G/	.	16g/Jk	.	.	.	.	.	16c\Jk 16C\	.	.	16g/Jk 16G/	.	16g/Jk 16e-/	.	.	.	.	.	.
*	*	*	*	*	*	*	*	*	*	*	*	*	*	*	*	*	*	*	*	*	*	*v	*v	*	*	*	*	*	*	*	*	*	*
=31	=31	=31	=31	=31	=31	=31	=31	=31	=31	=31	=31	=31	=31	=31	=31	=31	=31	=31	=31	=31	=31	=31	=31	=31	=31	=31	=31	=31	=31	=31	=31	=31
*tremolo	*	*	*	*	*	*	*	*	*	*	*	*tremolo	*	*tremolo	*	*tremolo	*	*	*	*	*	*	*	*	*	*	*	*	*	*	*	*
32GG/LLL	.	2.ryy	4G\	-re-	.	4G/	.	4g\	4g/	.	.	32B/LLL	.	32d/LLL 32G/	.	32g/LLL	.	2.r	2.r	.	2.r	4.B\ 4.GG\	.	4.g/ 4.G/	.	4.g/ 4.d/	.	2.ryy	.	2.ryy	2.ryy	.
32GG/	.	.	.	.	.	.	.	.	.	.	.	32B/	.	32d/ 32G/	.	32g/	.	.	.	.	.	.	.	.	.	.	.	.	.	.	.	.
32GG/	.	.	.	.	.	.	.	.	.	.	.	32B/	.	32d/ 32G/	.	32g/	.	.	.	.	.	.	.	.	.	.	.	.	.	.	.	.
32GG/	.	.	.	.	.	.	.	.	.	.	.	32B/	.	32d/ 32G/	.	32g/	.	.	.	.	.	.	.	.	.	.	.	.	.	.	.	.
32GG/	.	.	.	.	.	.	.	.	.	.	.	32B/	.	32d/ 32G/	.	32g/	.	.	.	.	.	.	.	.	.	.	.	.	.	.	.	.
32GG/	.	.	.	.	.	.	.	.	.	.	.	32B/	.	32d/ 32G/	.	32g/	.	.	.	.	.	.	.	.	.	.	.	.	.	.	.	.
32GG/	.	.	.	.	.	.	.	.	.	.	.	32B/	.	32d/ 32G/	.	32g/	.	.	.	.	.	.	.	.	.	.	.	.	.	.	.	.
32GG/JJJ	.	.	.	.	.	.	.	.	.	.	.	32B/JJJ	.	32d/JJJ 32G/	.	32g/JJJ	.	.	.	.	.	.	.	.	.	.	.	.	.	.	.	.
*Xtremolo	*	*	*	*	*	*	*	*	*	*	*	*Xtremolo	*	*Xtremolo	*	*Xtremolo	*	*	*	*	*	*	*	*	*	*	*	*	*	*	*	*
8GG/	.	.	8G\	-re	.	8G/	.	8g\	8g/	.	.	8B/	.	8d/ 8G/	.	8g/	.	.	.	.	.	.	.	.	.	.	.	.	.	.	.	.
8r	.	.	8r	.	.	8r	.	8r	8r	.	.	8r	.	8r	.	8r	.	.	.	.	.	8r	.	8r	.	8r	.	.	.	.	.	.
!	!	!	!LO:TX:a:i:t=Solo	!	!	!	!	!	!	!	!	!	!	!	!	!	!	!	!	!	!	!	!	!	!	!	!	!	!	!	!	!
4r	.	.	(16G\LL	miſ-	.	4r	.	4r	4r	.	.	4r	.	4r	.	4r	.	.	.	.	.	4r	.	4r	.	4r	.	.	.	.	.	.
.	.	.	32A\L	.	.	.	.	.	.	.	.	.	.	.	.	.	.	.	.	.	.	.	.	.	.	.	.	.	.	.	.	.
.	.	.	32G\JJJ	.	.	.	.	.	.	.	.	.	.	.	.	.	.	.	.	.	.	.	.	.	.	.	.	.	.	.	.	.
!	!	!	!LO:N:vis=8	!	!	!	!	!	!	!	!	!	!	!	!	!	!	!	!	!	!	!	!	!	!	!	!	!	!	!	!	!
.	.	.	16F#\)	.	.	.	.	.	.	.	.	.	.	.	.	.	.	.	.	.	.	.	.	.	.	.	.	.	.	.	.	.
!	!	!	!LO:N:vis=8	!	!	!	!	!	!	!	!	!	!	!	!	!	!	!	!	!	!	!	!	!	!	!	!	!	!	!	!	!
.	.	.	16E\	-se-	.	.	.	.	.	.	.	.	.	.	.	.	.	.	.	.	.	.	.	.	.	.	.	.	.	.	.	.
=32	=32	=32	=32	=32	=32	=32	=32	=32	=32	=32	=32	=32	=32	=32	=32	=32	=32	=32	=32	=32	=32	=32	=32	=32	=32	=32	=32	=32	=32	=32	=32	=32
8D\	.	2.ryy	((8.D\L	-re-	.	2.r;	.	2.r;	2.r;	.	.	8r	.	8r	.	8r	.	2.r;	2.r;	.	2.r;	2.r;	.	2.r;	.	2.r;	.	2.r;	.	2.ryy	2.r;	.
8r	.	.	.	.	.	.	.	.	.	.	.	8d\ 8A\	.	8c/	.	8f#/	.	.	.	.	.	.	.	.	.	.	.	.	.	.	.	.
.	.	.	32C#X\LL	.	.	.	.	.	.	.	.	.	.	.	.	.	.	.	.	.	.	.	.	.	.	.	.	.	.	.	.	.
.	.	.	32D\JJJ	.	.	.	.	.	.	.	.	.	.	.	.	.	.	.	.	.	.	.	.	.	.	.	.	.	.	.	.	.
8D\	.	.	(16E\LL)	-re	.	.	.	.	.	.	.	8r	.	8r	.	8r	.	.	.	.	.	.	.	.	.	.	.	.	.	.	.	.
.	.	.	16D\	.	.	.	.	.	.	.	.	.	.	.	.	.	.	.	.	.	.	.	.	.	.	.	.	.	.	.	.	.
8r	.	.	16C#\	.	.	.	.	.	.	.	.	8d\ 8A\	.	8c/	.	8f#/	.	.	.	.	.	.	.	.	.	.	.	.	.	.	.	.
.	.	.	16D\JJ)	.	.	.	.	.	.	.	.	.	.	.	.	.	.	.	.	.	.	.	.	.	.	.	.	.	.	.	.	.
8D\	.	.	8.B;\L)	no-	.	.	.	.	.	.	.	8r	.	8r	.	8r	.	.	.	.	.	.	.	.	.	.	.	.	.	.	.	.
8r;	.	.	.	.	.	.	.	.	.	.	.	8d\ 8A;\	.	8c;/	.	8f#;/	.	.	.	.	.	.	.	.	.	.	.	.	.	.	.	.
.	.	.	16A\Jk	.	.	.	.	.	.	.	.	.	.	.	.	.	.	.	.	.	.	.	.	.	.	.	.	.	.	.	.	.
=33	=33	=33	=33	=33	=33	=33	=33	=33	=33	=33	=33	=33	=33	=33	=33	=33	=33	=33	=33	=33	=33	=33	=33	=33	=33	=33	=33	=33	=33	=33	=33	=33
*	*	*	*	*	*	*	*	*	*	*	*	*	*	*	*	*	*	*	*	*	*	*	*	*	*	*^	*	*^	*	*	*	*
8G\	.	2.ryy	4G\	-bis.	.	4r	.	4r	4r	.	.	8d\ 8G\	.	8B/L|	.	[>2g/	.	2.r	2.r	.	2.r	4r	.	4r	.	4r	4ryy	.	4r	4ryy	.	2.ryy	4r	.
(8GG/L	.	.	.	.	.	.	.	.	.	.	.	(8G/L	.	(8B/	.	.	.	.	.	.	.	.	.	.	.	.	.	.	.	.	.	.	.	.
8AA/	.	.	4r	.	.	4r	.	4r	4r	.	.	8A/	.	8c/	.	.	.	.	.	.	.	4r	.	4r	.	4r	4ryy	.	4r	4ryy	.	.	4r	.
8BB/J	.	.	.	.	.	.	.	.	.	.	.	8B/J	.	8d/J)	.	.	.	.	.	.	.	.	.	.	.	.	.	.	.	.	.	.	.	.
!	!LO:HP:a	!	!	!	!LO:DY:a	!	!	!	!	!	!	!	!	!	!	!	!	!	!	!	!	!	!	!	!	!	!	!	!	!	!	!	!	!
8.C/L)	<	.	8.C\	Do-	<	8.G/	.	8.e\	8.g\	Do-	.	8.c/L)	<	8.e/L	.	8.g/L]	<	.	.	.	.	8.c\L 8.C^\	.	8.g/L 8.G/	<	8.g/L	8.e-\L	.	8.ee/L	8.cc\L	.	.	8.gg\L	<
16E/Jk|	[[	.	16E\	-na	[[	16G/	.	16g\	16cc\	-na	.	16e/Jk|	[[	16g/Jk|	.	16cc/Jk	.	.	.	.	.	16e\Jk 16E\	.	16g/Jk 16G/	[[	16cc/Jk	16g\Jk	.	16gg/Jk	16cc\Jk	.	.	16ccc\Jk	.
!!LO:PB:g=original
=34	=34	=34	=34	=34	=34	=34	=34	=34	=34	=34	=34	=34	=34	=34	=34	=34	=34	=34	=34	=34	=34	=34	=34	=34	=34	=34	=34	=34	=34	=34	=34	=34	=34	=34
(4G\	.	2.ryy	4G\	no-	.	4G/	.	4d\	(4cc\	no-	.	4.d\ 4.G\	.	4.g/	.	(4cc\	[	2.r	4r	.	2.r	4.d\ 4.G\	.	4.g/ 4.G/	.	4cc/	4.g\	.	4.gg/	4.dd\	.	2.ryy	(4ccc\	[
8GG/)	.	.	8GG/	-bis	.	8G/	.	8d\	8b\)	-bis	.	.	.	.	.	8b\)	.	.	4r	.	.	.	.	.	.	8b/	.	.	.	.	.	.	8bb\)	.
8r	.	.	8r	.	.	8r	.	8r	8r	.	.	8r	.	8r	.	8r	.	.	.	.	.	8r	.	8r	.	8r	8ryy	.	8r	8r	.	.	8r	.
!	!	!	!	!	!	!	!	!	!	!	!	!	!	!	!	!	!LO:HP:a	!	!	!	!	!	!	!	!	!	!	!	!	!	!	!	!	!
!	!	!	!	!	!	!	!	!	!	!	!LO:DY:a	!	!	!	!	!	!LO:DY:a	!	!	!	!	!	!	!	!	!	!	!	!	!	!	!	!	!
.	.	.	.	.	.	.	.	.	.	.	f	.	.	.	.	.	f <	.	.	.	.	.	.	.	.	.	.	f	.	.	.	.	.	.
(4BB/	.	.	(4BB/	Do-	.	[4G/	.	(4g\	[4dd\	Do-	<[	[4G/	f	4g/	.	[4dd\	.	.	4d\ 4G\ 4BB\	.	.	(>(>4B\ 4BB\	.	[4g/ 4G/	f	[4dd/	4g\	.	[4gg/	4dd\	.	.	(4ddd\	f <
=35	=35	=35	=35	=35	=35	=35	=35	=35	=35	=35	=35	=35	=35	=35	=35	=35	=35	=35	=35	=35	=35	=35	=35	=35	=35	=35	=35	=35	=35	=35	=35	=35	=35	=35
*	*	*	*	*	*	*	*	*	*	*	*	*	*	*	*	*	*	*	*^	*	*	*	*	*	*	*	*	*	*	*	*	*	*	*
*	*	*	*	*	*	*	*	*	*	*	*	*	*	*	*	*	*	*	*	*^	*	*	*	*	*	*	*	*	*	*	*	*	*	*	*
*	*	*	*	*	*	*	*	*	*	*	*	*	*	*	*	*	*	*	*2\right	*	*	*	*	*	*	*	*	*	*	*	*	*	*	*	*	*
2.C/)	.	2.ryy	4.C/)	.	.	4.G/]	.	4.e\)	4.dd\]	.	.	2G/]	.	[2e/	.	(4.dd\]	.	2.r	2e\ 2G\ 2C\	2ryy	2ryy	.	2.r	2.c\ 2.C\))	.	2g/] 2G/	.	(4.dd/]	2g\	.	(2gg/]	2dd\	.	2.ryy	4.ddd\	.
.	.	.	8C/	-na	.	8G/	.	8e\	8cc\	-na	.	.	.	.	.	8cc\L	[	.	.	.	.	.	.	.	.	.	.	8cc/L	.	.	.	.	.	.	8ccc\L	[
.	.	.	8C/	no-	.	8G#X/	.	8e\	8b\	no-	.	(8G#X/L	.	8e/L]	.	8b\	.	.	8e/L	4C\	4G#X/	.	.	.	.	4r	.	8b/	8g#X\L	.	8ee/L	8ee\L	.	.	8bb\	.
.	.	.	8C/	-bis	.	8A/	.	8e-X\	8a\	-bis	.	8A/J	.	(8e-X/J	.	8a\J	.	.	8e-X/ 8A/J	.	.	.	.	.	.	.	.	8a#X/J	8a#\J	.	8ee-X/J	8ee-\J	.	.	8aa\J	.
*	*	*	*	*	*	*	*	*	*	*	*	*	*	*	*	*	*	*	*v	*v	*v	*	*	*	*	*	*	*	*	*	*	*	*	*	*	*
=36	=36	=36	=36	=36	=36	=36	=36	=36	=36	=36	=36	=36	=36	=36	=36	=36	=36	=36	=36	=36	=36	=36	=36	=36	=36	=36	=36	=36	=36	=36	=36	=36	=36	=36
4D\	.	2.ryy	8D\	pa-	.	8B\	.	8d\	8g\	pa-	.	8B/L)	.	8d/L)	.	8g/L)	.	2.r	8d\L 8B\ 8D\	.	2.r	4d\ 4D\	.	2.r	.	8b'/L)	8g\L	.	8dd/L)	8dd\L	.	2.ryy	8gg\L)	.
.	.	.	8D\	-cem	.	8B\	.	8d\	8d/	-cem	.	8B'/J	.	8d/J|	.	8d/J|	.	.	8B\J 8G\ 8D\	.	.	.	.	.	.	8b'/J	8g\J	.	8dd/J	8dd\J	.	.	8dd'\J	.
2D\	.	.	2D\	pa-	.	(>4G/	.	(4.d\	(4.b\	pa-	.	4G/	.	(4.d/	.	(4.b/	.	.	4B\ 4G\ 4D\	.	.	2d\ 2D\	.	.	.	(4.b/	4g\	.	(4.dd/	4.dd\	.	.	(4.bb\	.
.	.	.	.	.	.	4F#/)	.	.	.	.	.	4F#/	.	.	.	.	.	.	4r	.	.	.	.	.	.	.	4f#\	.	.	.	.	.	.	.
.	.	.	.	.	.	.	.	8c\)	8a\)	.	.	.	.	8c/)	.	8a/	.	.	.	.	.	.	.	.	.	8a/)	.	.	8ff#/)	8cc\	.	.	8aa\)	.
*	*	*	*	*	*	*	*	*	*	*	*	*	*	*	*	*	*	*	*	*	*	*	*	*	*	*	*	*	*v	*v	*	*	*	*
=37	=37	=37	=37	=37	=37	=37	=37	=37	=37	=37	=37	=37	=37	=37	=37	=37	=37	=37	=37	=37	=37	=37	=37	=37	=37	=37	=37	=37	=37	=37	=37	=37	=37
*	*	*	*	*	*	*	*	*	*	*	*	*	*	*	*	*	*	*	*	*	*	*^	*	*	*	*	*	*	*	*	*	*	*
4.G\	.	2.ryy	4.G\	-cem.	.	4.G/	.	4.B/	4.g\	-cem.	.	4.G/	.	4.B/	.	4.g/)	.	2.r	4.B\ 4.G\ 4.GG\	.	2.r	4.d\	4.G\	.	2.r	.	4.g/	4.g\	.	4.gg\ 4.b\	.	2.ryy	4.gg\	.
8r	.	.	8r	.	.	8r	.	8r	8r	.	.	8r	.	8r	.	8r	.	.	8r	.	.	8rd	8rG	.	.	.	8r	8ryy	.	8r	.	.	8r	.
4G\	.	.	4r	.	.	4r	.	4r	4r	.	.	4B/	.	4d/	.	4g/	.	.	4r	.	.	4rd	4rG	.	.	.	4r	4ryy	.	4r	.	.	4r	.
*	*	*	*	*	*	*	*	*	*	*	*	*	*	*	*	*	*	*	*	*	*	*v	*v	*	*	*	*v	*v	*	*	*	*	*	*
=38	=38	=38	=38	=38	=38	=38	=38	=38	=38	=38	=38	=38	=38	=38	=38	=38	=38	=38	=38	=38	=38	=38	=38	=38	=38	=38	=38	=38	=38	=38	=38	=38
4.Fn\	.	2.ryy	2.r	.	.	2.r	.	2.r	2.r	.	.	2c/	.	(2.fn/	.	(>2a-X/	.	2.r	2.r	.	2.r	2.r	.	2.r	.	2.r	.	2.r	.	2.ryy	2.r	.
(8E-X\	.	.	.	.	.	.	.	.	.	.	.	.	.	.	.	.	.	.	.	.	.	.	.	.	.	.	.	.	.	.	.	.
4D\)	.	.	.	.	.	.	.	.	.	.	.	[>4B-X/	.	.	.	8b-X/L	.	.	.	.	.	.	.	.	.	.	.	.	.	.	.	.
.	.	.	.	.	.	.	.	.	.	.	.	.	.	.	.	8a-/J	.	.	.	.	.	.	.	.	.	.	.	.	.	.	.	.
=39	=39	=39	=39	=39	=39	=39	=39	=39	=39	=39	=39	=39	=39	=39	=39	=39	=39	=39	=39	=39	=39	=39	=39	=39	=39	=39	=39	=39	=39	=39	=39	=39
(4.E-X\	.	2.ryy	2.r	.	.	2.r	.	2.r	2.r	.	.	2B-X/]	.	2.e-X/	.	(2g/)	.	2.r	2.r	.	2.r	2.r	.	2.r	.	2.r	.	2.r	.	2.ryy	2.r	.
8D\	.	.	.	.	.	.	.	.	.	.	.	.	.	.	.	.	.	.	.	.	.	.	.	.	.	.	.	.	.	.	.	.
4C/)	.	.	.	.	.	.	.	.	.	.	.	[>4A-X/	.	.	.	8a-X/L	.	.	.	.	.	.	.	.	.	.	.	.	.	.	.	.
.	.	.	.	.	.	.	.	.	.	.	.	.	.	.	.	8g/J	.	.	.	.	.	.	.	.	.	.	.	.	.	.	.	.
=40	=40	=40	=40	=40	=40	=40	=40	=40	=40	=40	=40	=40	=40	=40	=40	=40	=40	=40	=40	=40	=40	=40	=40	=40	=40	=40	=40	=40	=40	=40	=40	=40
(4.D/	.	2.ryy	2.r	.	.	2.r	.	2.r	2.r	.	.	2A-X/]	.	2.d/)	.	(2fn/)	.	2.r	2.r	.	2.r	2.r	.	2.r	.	2.r	.	2.r	.	2.ryy	2.r	.
8C/)	.	.	.	.	.	.	.	.	.	.	.	.	.	.	.	.	.	.	.	.	.	.	.	.	.	.	.	.	.	.	.	.
4BBn/	.	.	.	.	.	.	.	.	.	.	.	[>4G/	.	.	.	8g/L	.	.	.	.	.	.	.	.	.	.	.	.	.	.	.	.
.	.	.	.	.	.	.	.	.	.	.	.	.	.	.	.	8f/J)	.	.	.	.	.	.	.	.	.	.	.	.	.	.	.	.
=41	=41	=41	=41	=41	=41	=41	=41	=41	=41	=41	=41	=41	=41	=41	=41	=41	=41	=41	=41	=41	=41	=41	=41	=41	=41	=41	=41	=41	=41	=41	=41	=41
(>4.C/	.	2.ryy	2.r	.	.	2.r	.	2.r	2.r	.	.	2G/]	.	2.c/	.	(4.e-X/	.	2.r	2.r	.	2.r	2.r	.	2.r	.	2.r	.	2.r	.	2.ryy	2.r	.
8BB-X/L	.	.	.	.	.	.	.	.	.	.	.	.	.	.	.	8en/L	.	.	.	.	.	.	.	.	.	.	.	.	.	.	.	.
8AA/	.	.	.	.	.	.	.	.	.	.	.	8A-X/L	.	.	.	8fn/	.	.	.	.	.	.	.	.	.	.	.	.	.	.	.	.
8FFn/J)	.	.	.	.	.	.	.	.	.	.	.	8Fn/J	.	.	.	8a-X/J)	.	.	.	.	.	.	.	.	.	.	.	.	.	.	.	.
=42	=42	=42	=42	=42	=42	=42	=42	=42	=42	=42	=42	=42	=42	=42	=42	=42	=42	=42	=42	=42	=42	=42	=42	=42	=42	=42	=42	=42	=42	=42	=42	=42
2.BB-X/	.	2.ryy	2.r	.	.	2.r	.	2.r	2.r	.	.	2.B-X/	.	(2e-X/	.	(4g/	.	2.r	2.r	.	2.r	2.r	.	2.r	.	2.r	.	2.r	.	2.ryy	2.r	.
.	.	.	.	.	.	.	.	.	.	.	.	.	.	.	.	2fn/)	.	.	.	.	.	.	.	.	.	.	.	.	.	.	.	.
.	.	.	.	.	.	.	.	.	.	.	.	.	.	4d/)	.	.	.	.	.	.	.	.	.	.	.	.	.	.	.	.	.	.
==	==	==	==	==	==	==	==	==	==	==	==	==	==	==	==	==	==	==	==	==	==	==	==	==	==	==	==	==	==	==	==	==
*-	*-	*-	*-	*-	*-	*-	*-	*-	*-	*-	*-	*-	*-	*-	*-	*-	*-	*-	*-	*-	*-	*-	*-	*-	*-	*-	*-	*-	*-	*-	*-	*-
!!!system-decoration: {(s1,s2)}s3,s4,s5,s6,s7,s8,s9[({(s10,s11)}s12)][(s13,s14,s15,s16)][(s17,s18)]
!!!RDF**kern: > = above
!!!RDF**kern: < = below
!!!RDF**kern: | = vertical stroke
!!!EED: Leszek Kubiak
!!!EEV: 2021-05-05
!!!ENC: Andrzej Gręziak
!!!END: 2021-04-14
